!!!!SEGMENT: pl-wumfc--n2100--001-019_dobrzynski-ignacy-feliks--monbar-czyli-flibustierowie-partytura-fortepianowa-akt-iii-17-duetto.krn
!!!cenid: 18xx:4202
!!!COM: Dobrzyński, Ignacy Feliks
!!!COM-rismID: pe30020642
!!!CDT: 1807/02/15-1867/10/09
!!!CNT: Polish
!!!OPR: Monbar czyli Flibustierowie - partytura fortepianowa
!!!OTL: Akt III - 17. Duetto
!!!OMV: 019
!!!PDT: 1863
!!!AGN:
!!!SMS-siglum: PL-Wumfc
!!!SMS-shelfmark: N2100
!!!SMS-shelfwork: 001-019 M
!!!SMS-variant:
!!!SMS-altvar:
!!!NIFC-rismSourceID: 1001123412
!!!NIFC-rismChildID: 1001123412
!!!NIFC-islandoraID: pl-wumfc:1659
!!!URL-pdf-islandora: https://repozytorium.nifc.pl/islandora/object/pl-wumfc%3A1659/datastream/PDF/view
!!!URL-scan: https://polish.musicsources.pl/pl/lokalizacje/galeria/druki-muzyczne/11863/146 @EN{Scan on Polish Music Sources Website} @PL{Skany w portalu Dziedzictwo Muzyki Polskiej w otwartym dostępie}
!!!IIIF:
!!!ONB-nifc: Skany 0146-0152
!!!AIN: 1 barit 2 piano 1 soprn
!!!key: C
**kern	**kern	**dynam	**kern	**text	**dynam	**kern	**text	**dynam
*part4	*part3	*part3	*part2	*part2	*part2	*part1	*part1	*part1
*staff4	*staff3	*	*staff2	*staff2	*	*staff1	*staff1	*
*I"PIANO.	*I"PIANO.	*	*I"MONBAR.	*	*	*I"D. MARYA.	*	*
*	*I'	*	*I'	*	*	*I'	*	*
*Ipiano	*Ipiano	*	*Ibarit	*	*	*Isoprn	*	*
*ICklav	*ICklav	*	*ICvox	*	*	*ICvox	*	*
*clefF4	*clefG2	*	*clefG2	*	*	*clefG2	*	*
*	*	*	*ITrd8c12	*	*	*	*	*
*kcancel	*kcancel	*	*kcancel	*	*	*kcancel	*	*
*k[]	*k[]	*	*k[]	*	*	*k[]	*	*
*C:	*C:	*	*C:	*	*	*C:	*	*
*M3/4	*M3/4	*	*M3/4	*	*	*M3/4	*	*
*>[A,B,B1,B,B2,C]	*>[A,B,B1,B,B2,C]	*	*>[A,B,B1,B,B2,C]	*	*	*>[A,B,B1,B,B2,C]	*	*
=1	=1	=1	=1	=1	=1	=1	=1	=1
*>A	*>A	*>A	*>A	*>A	*>A	*>A	*>A	*>A
!	!	!	!LO:TX:a:i:t=(Wchodząc)	!	!	!LO:TX:a:B:t=Allegro moderato.	!	!
8C\L	8c/L	f	2.r	.	.	2.r	.	.
16D\L	16d/L	.	.	.	.	.	.	.
16E\JJ	16e/JJ	.	.	.	.	.	.	.
16F\LL	16f/LL	.	.	.	.	.	.	.
16E\	16e/	.	.	.	.	.	.	.
16F\	16f/	.	.	.	.	.	.	.
16G\JJ	16g/JJ	.	.	.	.	.	.	.
16A\LL	16a/LL	.	.	.	.	.	.	.
16G\	16g/	.	.	.	.	.	.	.
16A\	16a/	.	.	.	.	.	.	.
16B\JJ	16b/JJ	.	.	.	.	.	.	.
=2	=2	=2	=2	=2	=2	=2	=2	=2
4c\	4cc\	.	2e\	Cóż	.	2.r	.	.
4r	4r	.	.	.	.	.	.	.
4r	4r	.	8d\	to	.	.	.	.
.	.	.	8e\	za	.	.	.	.
=3	=3	=3	=3	=3	=3	=3	=3	=3
8AA/L	8A/L	.	4d\	chmu-	.	2.r	.	.
16BB/L	16B/L	.	.	.	.	.	.	.
16C/JJ	16c/JJ	.	.	.	.	.	.	.
16D\LL	16d/LL	.	4c\	-ra	.	.	.	.
16C\	16c/	.	.	.	.	.	.	.
16D\	16d/	.	.	.	.	.	.	.
16E\JJ	16e/JJ	.	.	.	.	.	.	.
16F#X\LL	16f#X/LL	.	4r	.	.	.	.	.
16E\	16e/	.	.	.	.	.	.	.
16F#\	16f#/	.	.	.	.	.	.	.
16G#X\JJ	16g#X/JJ	.	.	.	.	.	.	.
=4	=4	=4	=4	=4	=4	=4	=4	=4
4A\	4a/	.	4.c\	Ma-	.	2.r	.	.
4r	4r	.	.	.	.	.	.	.
.	.	.	8c\	-rjo	.	.	.	.
4r	4r	.	8d\	na	.	.	.	.
.	.	.	8e\	twém	.	.	.	.
!!LO:LB:g=original
=5	=5	=5	=5	=5	=5	=5	=5	=5
4F 4FF/	4aa 4ff 4cc 4a\	sf	4f\	czo-	.	2.r	.	.
4r	4r	.	4F/	-le	.	.	.	.
4r	4r	.	8r	.	.	.	.	.
.	.	.	8f\	Dla-	.	.	.	.
=6	=6	=6	=6	=6	=6	=6	=6	=6
4D 4DD/	4ddd 4ff 4dd\	sf	2f\	-cze-	.	2.r	.	.
4r	4r	.	.	.	.	.	.	.
4r	4r	.	4d\	-go	.	.	.	.
=7	=7	=7	=7	=7	=7	=7	=7	=7
.	.	.	4qqc/	smu-	.	.	.	.
4G 4GG/	4bb 4gg 4ff 4dd\	sf	2B\	-tek	.	2.r	.	.
4r	4r	.	.	.	.	.	.	.
4r	4r	.	8B\	two-	.	.	.	.
.	.	.	8d\	-je	.	.	.	.
=8	=8	=8	=8	=8	=8	=8	=8	=8
2.r	2.r	.	2g\	o-	.	2.r	.	.
.	.	.	(8f\L	-czy	.	.	.	.
.	.	.	8d\J)	.	.	.	.	.
=9	=9	=9	=9	=9	=9	=9	=9	=9
.	.	.	4qqd/	kry-	.	.	.	.
*tremolo	*	*	*	*	*	*	*	*
8GL 8E 8C\	4ccc 4gg 4ee 4cc\	sf	2c\	-je	.	2.r	.	.
8G 8E 8C\	.	.	.	.	.	.	.	.
8G 8E 8C\	8r	.	.	.	.	.	.	.
8GJ 8E 8C\	(16eee\LL	p	.	.	.	.	.	.
*Xtremolo	*	*	*	*	*	*	*	*
.	16ddd\JJ	.	.	.	.	.	.	.
8G#XL 8E 8C\	8ccc'\L)	.	4r	.	.	.	.	.
8G#J 8E 8C\	(16ccc\L	.	.	.	.	.	.	.
.	16bb\JJ	.	.	.	.	.	.	.
=10	=10	=10	=10	=10	=10	=10	=10	=10
*tremolo	*	*	*	*	*	*	*	*
8AL 8F 8C\	8aa'\L)	.	4r	.	.	2.r	.	.
8A 8F 8C\	16aa\L	.	.	.	.	.	.	.
.	16gg\JJ	.	.	.	.	.	.	.
8A 8F 8C\	8ff\L	.	8r	.	.	.	.	.
8AJ 8F 8C\	16ff\L	.	8f\	U-	.	.	.	.
*Xtremolo	*	*	*	*	*	*	*	*
.	16ee\JJ	.	.	.	.	.	.	.
8A-XL 8F 8C\	16dd\LL	.	8f\	-kój	.	.	.	.
.	16dd\	.	.	.	.	.	.	.
8A-J 8F 8C\	16dd\	.	8f\	ah!	.	.	.	.
.	16dd\JJ	.	.	.	.	.	.	.
=11	=11	=11	=11	=11	=11	=11	=11	=11
*tremolo	*	*	*	*	*	*	*	*
8GL 8F 8BB\	8dd'\L	.	2f\	u-	.	2.r	.	.
8G 8F 8BB\	(16dd\L	.	.	.	.	.	.	.
.	16cc\JJ	.	.	.	.	.	.	.
8G 8F 8BB\	8b'\L)	.	.	.	.	.	.	.
8G 8F 8BB\	(16b\L	.	.	.	.	.	.	.
.	16a\JJ	.	.	.	.	.	.	.
8G 8F 8BB\	8g'/L)	.	4d\	-kój	.	.	.	.
8GJ 8F 8BB\	(<16g/L	.	.	.	.	.	.	.
.	16a/JJ	.	.	.	.	.	.	.
*Xtremolo	*	*	*	*	*	*	*	*
!!LO:LB:g=original
=12	=12	=12	=12	=12	=12	=12	=12	=12
!	!LO:TX:t=P:problem:zakończenie łuku górą	!	!	!	!	!	!	!
8GG\L	8b'\L)	.	4.g\	ser-	.	2.r	.	.
8GJ 8F 8D\	(16b\L	.	.	.	.	.	.	.
.	16cc\JJ	.	.	.	.	.	.	.
*tremolo	*	*	*	*	*	*	*	*
8GL 8F 8D\	8dd'\L)	.	.	.	.	.	.	.
8G 8F 8D\	(16dd\L	.	8d\	-ca	.	.	.	.
.	16ee\JJ	.	.	.	.	.	.	.
8G 8F 8D\	8ff'\L)	.	8d\	me-	.	.	.	.
8GJ 8F 8D\	(16ff\L	.	8d\	-go	.	.	.	.
.	16gg\JJ	.	.	.	.	.	.	.
=13	=13	=13	=13	=13	=13	=13	=13	=13
.	.	.	4fqq/	bo-	.	.	.	.
8GL 8E 8C\	4ee'\)	.	2e\	-le	.	2.r	.	.
8G 8E 8C\	.	.	.	.	.	.	.	.
8G 8E 8C\	8r	.	.	.	.	.	.	.
8GJ 8E 8C\	(16eee\LL	.	.	.	.	.	.	.
*Xtremolo	*	*	*	*	*	*	*	*
.	16ddd\JJ	.	.	.	.	.	.	.
8G#XL 8E 8C\	8ccc'\L)	.	4r	.	.	.	.	.
8G#J 8E 8C\	(16ccc\L	.	.	.	.	.	.	.
.	16bb\JJ	.	.	.	.	.	.	.
=14	=14	=14	=14	=14	=14	=14	=14	=14
*tremolo	*	*	*	*	*	*	*	*
8AL 8E 8C\	8aa'\L)	.	4e\	ser-	.	2.r	.	.
8A 8E 8C\	(16aa\L	.	.	.	.	.	.	.
.	16ff\JJ	.	.	.	.	.	.	.
8A 8E 8C\	8ee'\L)	.	4e\	-ca	.	.	.	.
8A 8E 8C\	(16ee\L	.	.	.	.	.	.	.
.	16dd\JJ	.	.	.	.	.	.	.
8A 8E 8C\	8cc'\L)	.	4e\	co	.	.	.	.
8AJ 8E 8C\	(16cc\L	.	.	.	.	.	.	.
.	16b\JJ	.	.	.	.	.	.	.
=15	=15	=15	=15	=15	=15	=15	=15	=15
!	!LO:TX:b:t=cres-:ext=cd:problem:text with extention lines	!	!	!	!	!	!	!
8AL 8F#X 8D\	8a'/L)	<	2e\	dla	.	2.r	.	.
8A 8F# 8D\	(<16a/L	.	.	.	.	.	.	.
.	16g/JJ	.	.	.	.	.	.	.
!	!LO:TX:t=P:problem:mixed beam	!	!	!	!	!	!	!
8A 8F# 8D\	8f#X'</L)	.	.	.	.	.	.	.
8A 8F# 8D\	(16aa\L	.	.	.	.	.	.	.
.	16gg\JJ	.	.	.	.	.	.	.
8A 8F# 8D\	8ff#X'\L)	.	4d\	cię	.	.	.	.
8AJ 8F# 8D\	(16ff#\L	.	.	.	.	.	.	.
.	16ee\JJ	.	.	.	.	.	.	.
=16	=16	=16	=16	=16	=16	=16	=16	=16
8cL 8F#X 8D\	8dd'\L)	.	4.d\	je-	.	2.r	.	.
8c 8F# 8D\	(16dd\L	.	.	.	.	.	.	.
.	16cc#X\JJ	.	.	.	.	.	.	.
8c 8F# 8D\	8ccn'\L)	.	.	.	.	.	.	.
8c 8F# 8D\	16cc'\L	.	8d\	-dnéj	.	.	.	.
.	16a'\JJ	.	.	.	.	.	.	.
8c 8F# 8D\	(16f#X/LL	.	8c\	tyl-	.	.	.	.
.	16d/)	.	.	.	.	.	.	.
8cJ 8F# 8D\	16c'/	.	8A/	-ko	.	.	.	.
.	16A'/JJ	[[	.	.	.	.	.	.
*Xtremolo	*	*	*	*	*	*	*	*
=17	=17	=17	=17	=17	=17	=17	=17	=17
.	.	.	4Aqq/	bi-	.	.	.	.
!	!	!LO:DY:b:rj	!	!	!	!	!	!
8GG/L	8G/L	f	2G/	-je	.	2.rdd	.	.
16AA/L	16A/L	.	.	.	.	.	.	.
16BB/JJ	16B/JJ	.	.	.	.	.	.	.
16C/LL	16c/LL	.	.	.	.	.	.	.
16BB/	16B/	.	.	.	.	.	.	.
16C/	16c/	.	.	.	.	.	.	.
16D/JJ	16d/JJ	.	.	.	.	.	.	.
16E/LL	16e/LL	.	4r	.	.	.	.	.
16D/	16d/	.	.	.	.	.	.	.
16E/	16e/	.	.	.	.	.	.	.
16F#X/JJ	16f#X/JJ	.	.	.	.	.	.	.
!!LO:PB:g=original
=18	=18	=18	=18	=18	=18	=18	=18	=18
!	!	!	!	!	!	!LO:TX:a:i:t=(Na stronie)	!	!LO:DY:b:rj
4G\	4g/	.	2.r	.	.	2gg\	O!	f
4r	4r	.	.	.	.	.	.	.
4r	4r	.	.	.	.	8g/	gdy-	.
.	.	.	.	.	.	8g/	-byż	.
=19	=19	=19	=19	=19	=19	=19	=19	=19
8C\L	8c/L	.	2.r	.	.	2ee\	wie-	.
16D\L	16d/L	.	.	.	.	.	.	.
16E\JJ	16e/JJ	.	.	.	.	.	.	.
16F\LL	16f/LL	.	.	.	.	.	.	.
16E\	16e/	.	.	.	.	.	.	.
16F\	16f/	.	.	.	.	.	.	.
16G\JJ	16g/JJ	.	.	.	.	.	.	.
16A\LL	16a/LL	.	.	.	.	4cc\	-dział	.
16G\	16g/	.	.	.	.	.	.	.
16A\	16a/	.	.	.	.	.	.	.
16B\JJ	16b/JJ	.	.	.	.	.	.	.
=20	=20	=20	=20	=20	=20	=20	=20	=20
4c\	4cc\	.	2.r	.	.	4.cc\	stra-	.
4r	4r	.	.	.	.	.	.	.
.	.	.	.	.	.	8cc\	-szną	.
4r	4r	.	.	.	.	8dd\	ta-	.
.	.	.	.	.	.	8ee\	-je-	.
=21	=21	=21	=21	=21	=21	=21	=21	=21
8D\L	8d/L	.	2.r	.	.	4ee\	-mni-	.
16E\L	16e/L	.	.	.	.	.	.	.
16F#X\JJ	16f#X/JJ	.	.	.	.	.	.	.
16G\LL	16g/LL	.	.	.	.	4dd\	-cę	.
16F#\	16f#/	.	.	.	.	.	.	.
16G\	16g/	.	.	.	.	.	.	.
16A\JJ	16a/JJ	.	.	.	.	.	.	.
16B\LL	16b/LL	.	.	.	.	4r	.	.
16A\	16a/	.	.	.	.	.	.	.
16B\	16b/	.	.	.	.	.	.	.
16c#X\JJ	16cc#X/JJ	.	.	.	.	.	.	.
=22	=22	=22	=22	=22	=22	=22	=22	=22
!	!	!	!	!	!	!	!	!
4d\	4dd\	.	2.r	.	.	(8ff#X^\L	stra-	.
.	.	.	.	.	.	8ee\J)	.	.
!	!	!	!	!	!	!	!	!
4r	4r	.	.	.	.	(8dd^\L	-szną	.
.	.	.	.	.	.	8cc\J)	.	.
4r	4r	.	.	.	.	8b\	ta-	.
.	.	.	.	.	.	8a/	-je-	.
!!LO:LB:g=original
=23	=23	=23	=23	=23	=23	=23	=23	=23
.	.	.	.	.	.	4qqa/	-mni-	.
*tremolo	*	*	*	*	*	*	*	*
8dL 8B 8G\	8r	.	4r	.	.	2g/	-cę	.
8d 8B 8G\	(16ddd\LL	.	.	.	.	.	.	.
.	16ccc\JJ	.	.	.	.	.	.	.
8d 8B 8G\	8bb'\L)	.	4r	.	.	.	.	.
8d 8B 8G\	(16bb\L	.	.	.	.	.	.	.
.	16aa\JJ	.	.	.	.	.	.	.
8d 8B 8G\	4gg'\)	.	8r	.	.	4r	.	.
8dJ 8B 8G\	.	.	8B\	Roz-	.	.	.	.
=24	=24	=24	=24	=24	=24	=24	=24	=24
8d#XL 8B 8A 8F#X\	8r	.	2B\	-ja-	.	2.r	.	.
8d# 8B 8A 8F#\	(16ff#X\LL	.	.	.	.	.	.	.
.	16ee\JJ	.	.	.	.	.	.	.
8d# 8B 8A 8F#\	8dd#X'\L)	.	.	.	.	.	.	.
8d# 8B 8A 8F#\	(16dd#\L	.	.	.	.	.	.	.
.	16cc#X\JJ	.	.	.	.	.	.	.
8d# 8B 8A 8F#\	4b'\)	.	4B\	-śnij	.	.	.	.
8d#J 8B 8A 8F#\	.	.	.	.	.	.	.	.
*Xtremolo	*	*	*	*	*	*	*	*
=25	=25	=25	=25	=25	=25	=25	=25	=25
8eL 8B 8G 8E\	8r	.	2g\	lu-	.	2.r	.	.
8BJ 8G 8E\	(16bb\LL	.	.	.	.	.	.	.
.	16aa\JJ	.	.	.	.	.	.	.
8BL 8G 8E\	8gg'\L)	.	.	.	.	.	.	.
8BJ 8G 8E\	(16gg\L	.	.	.	.	.	.	.
.	16ff#X\JJ	.	.	.	.	.	.	.
8B-XL 8G 8E 8D\	4ee'\)	.	8e\	-ba	.	.	.	.
8B-J 8G 8E 8D\	.	.	8e\	za-	.	.	.	.
=26	=26	=26	=26	=26	=26	=26	=26	=26
*tremolo	*	*	*	*	*	*	*	*
8AL 8E 8C#X\	8r	.	2e\	-ćmio-	.	2.r	.	.
8A 8E 8C#\	(16ee\LL	.	.	.	.	.	.	.
.	16dd\JJ	.	.	.	.	.	.	.
8A 8E 8C#\	8cc#X'\L)	.	.	.	.	.	.	.
8A 8E 8C#\	(16cc#\L	.	.	.	.	.	.	.
.	16b\JJ	.	.	.	.	.	.	.
8A 8E 8C#\	4a'/)	.	8A/	-ne	.	.	.	.
8AJ 8E 8C#\	.	.	8A/	żre-	.	.	.	.
=27	=27	=27	=27	=27	=27	=27	=27	=27
8AL 8F#X 8D\	8r	.	4f#X\	-ni-	.	2.r	.	.
8A 8F# 8D\	(16aa\LL	.	.	.	.	.	.	.
.	16gg\JJ	.	.	.	.	.	.	.
8A 8F# 8D\	8ff#X'\L)	.	4d\	-cę	.	.	.	.
8A 8F# 8D\	(16ff#\L	.	.	.	.	.	.	.
.	16ee\JJ	.	.	.	.	.	.	.
8A 8F# 8D\	4dd'\)	.	8r	.	.	.	.	.
8AJ 8F# 8D\	.	.	8d\	w przy-	.	.	.	.
*Xtremolo	*	*	*	*	*	*	*	*
!!LO:LB:g=original
=28	=28	=28	=28	=28	=28	=28	=28	=28
!LO:S:s=2:note:problem=note-level slur	!	!LO:DY:b=2	!	!	!	!	!	!
&&&(>2.D &(<2.AA &&(<2.FF#X/	2.r	fp	2d\	-chyl-	.	2.r	.	.
.	.	.	4D/	-nem	.	.	.	.
=29	=29	=29	=29	=29	=29	=29	=29	=29
*^	*	*	*	*	*	*	*	*
!	!LO:S:s=2:note:problem=note-level slur	!	!	!	!	!	!	!	!
2.E/&&&)	2.D&&)&) 2.GG\	8r	.	2F#X/	nie-	.	2.r	.	.
.	.	(16bb\LL	.	.	.	.	.	.	.
.	.	16aa\JJ	.	.	.	.	.	.	.
.	.	8gg'\L)	.	.	.	.	.	.	.
.	.	(16gg\L	.	.	.	.	.	.	.
.	.	16ff#X\JJ	.	.	.	.	.	.	.
.	.	4ee'\)	.	4E/	-bo	.	.	.	.
=30	=30	=30	=30	=30	=30	=30	=30	=30	=30
2.F#X/	2.D 2.AA\	2.r	<[	4.d\	u-	.	2.r	.	.
.	.	.	.	8F#X/	-każ	.	.	.	.
.	.	.	.	8F#/	mi	.	.	.	.
.	.	.	.	8F#/	spój-	.	.	.	.
=31	=31	=31	=31	=31	=31	=31	=31	=31	=31
2.G/	2.D 2.BB\	8r	.	4A/	-rze-	.	2.r	.	.
.	.	(16dd\LL	.	.	.	.	.	.	.
.	.	16cc\JJ	.	.	.	.	.	.	.
.	.	8b'\L)	.	4G/	-niu	.	.	.	.
.	.	(16b\L	.	.	.	.	.	.	.
.	.	16a\JJ	.	.	.	.	.	.	.
.	.	4g'>/)	.	4r	.	.	.	.	.
*v	*v	*	*	*	*	*	*	*	*
=32	=32	=32	=32	=32	=32	=32	=32	=32
!	!LO:S:s=1:note:problem=note-level slur	!	!	!	!	!	!	!
4B\	[2.dd (>2.g#X [2.f/	f >	2d\	Nie-	.	2.r	.	.
(2B-X\	.	.	.	.	.	.	.	.
.	.	]	8d\	-chciéj	.	.	.	.
.	.	.	8d\	zło-	.	.	.	.
=33	=33	=33	=33	=33	=33	=33	=33	=33
!	!LO:S:s=1:note:problem=note-level slur	!	!	!	!	!	!	!
8A\L)	8dd]L 8a) 8f/]	p <	4d\	-rze-	.	2.r	.	.
8A\J	8ddJ 8a 8f/	.	.	.	.	.	.	.
*tremolo	*tremolo	*	*	*	*	*	*	*
8A\L	8cc#XL 8a 8e/	.	4c#X\	-czyć	.	.	.	.
8A\	8cc# 8a 8e/	.	.	.	.	.	.	.
8A\	8cc# 8a 8e/	.	8r	.	.	.	.	.
!	!	!	!	!	!LO:HP:a	!	!	!
8A\J	8cc#J 8a 8e/	[[	8c#\	stra-	<	.	.	.
*Xtremolo	*Xtremolo	*	*	*	*	*	*	*
=34	=34	=34	=34	=34	=34	=34	=34	=34
!	!	!	!	!	!	!	!	!
[2.c\	[2.ee-X [>2.a [2.f#X/	f >	2e-X\	-szne-	[[	2.r	.	.
.	.	.	.	.	f>	.	.	.
!	!	!	!	!	!	!	!	!
.	.	]	8e-\	-mu	.	.	.	.
.	.	.	8e-\	i-	]]	.	.	.
!!LO:LB:g=original
=35	=35	=35	=35	=35	=35	=35	=35	=35
!	!LO:TX:t=P:problem:brak zakończenia środkowej ligatury	!	!	!	!	!	!	!
8c\L]	8ee-]L 8a] 8f#/]	p	4e-X\	-mie-	.	2.r	.	.
8c\J	8ee-XJ 8a 8f#X/	<	.	.	.	.	.	.
*tremolo	*tremolo	*	*	*	*	*	*	*
8B\L	8ddL 8g/	.	4d\	-niu	.	.	.	.
8B\	8dd 8g/	.	.	.	.	.	.	.
8B\	8dd 8g/	.	4r	.	.	.	.	.
8B\J	8ddJ 8g/	[[	.	.	.	.	.	.
*Xtremolo	*Xtremolo	*	*	*	*	*	*	*
=36	=36	=36	=36	=36	=36	=36	=36	=36
!	!	!	!	!	!	!	!	!
!	!	!	!	!	!LO:DY:a:rj	!	!	!
2.d\	2.ff 2.b 2.g#X\	f >	2f^\	Nie	f	2.r	.	.
.	.	]	8f\	chciéj	.	.	.	.
.	.	.	8f\	zło-	.	.	.	.
=37	=37	=37	=37	=37	=37	=37	=37	=37
4c#X\	(>4ee 4b-X 4gn/	.	4e\	-rze-	.	2.r	.	.
!	!	!LO:HP:b:t=dim	!	!	!	!	!	!
4cn\	4ee-X 4a 4f#X/	>	4e-X\	-czyć	.	.	.	.
4B\	4dd [4g/)	.	4d\	stra-	.	.	.	.
=38	=38	=38	=38	=38	=38	=38	=38	=38
*	*^	*	*	*	*	*	*	*
4B-X\	4cc#X/	2g\]	<	4c#X\	-szne-	.	2.r	.	.
4A\	4ccn/	.	.	4c\	-mu	.	.	.	.
4D\	4f#X/	4d\	[	4c\	i-	.	.	.	.
=39	=39	=39	=39	=39	=39	=39	=39	=39	=39
!	!	!	!LO:DY:b:rj	!	!	!	!	!	!
4G\	8bL 8g/	8d\L	fp	4c\	-mie-	.	2.r	.	.
.	8bJ 8g/	8d\J	.	.	.	.	.	.	.
*	*tremolo	*	*	*	*	*	*	*	*
4r	8bL 8g 8d/	2ryy	.	4B\	-niu	.	.	.	.
.	8b 8g 8d/	.	.	.	.	.	.	.	.
4r	8b 8g 8d/	.	.	8r	.	.	.	.	.
.	8bJ 8g 8d/	.	.	8d\	przy-	.	.	.	.
*	*Xtremolo	*	*	*	*	*	*	*	*
*	*v	*v	*	*	*	*	*	*	*
=40	=40	=40	=40	=40	=40	=40	=40	=40
4C 4CC/	8r	.	(8f#X\L	-chyl-	.	2.r	.	.
.	8a 8e 8c/	.	8e\J)	.	.	.	.	.
4r	8aL 8e 8c/	.	(8d\L	-nem	.	.	.	.
.	8a 8e 8c/	.	8c\J)	.	.	.	.	.
4r	8a 8e 8c/	.	8B\	nie-	.	.	.	.
.	8aJ 8e 8c/	.	8A/	-bo	.	.	.	.
=41	=41	=41	=41	=41	=41	=41	=41	=41
4D 4DD/	8r	.	4.G/	u-	.	2.r	.	.
.	8g 8d 8B/	.	.	.	.	.	.	.
4r	8gL 8d 8B/	.	.	.	.	.	.	.
.	8g 8d 8B/	.	(16A/LL	-każ	.	.	.	.
.	.	.	16G/JJ)	.	.	.	.	.
4r	8g 8d 8B/	.	8F#X/	mi	.	.	.	.
.	8gJ 8d 8B/	.	8G/	spój-	.	.	.	.
!!LO:PB:g=original
=42	=42	=42	=42	=42	=42	=42	=42	=42
*tremolo	*	*	*	*	*	*	*	*
8DL 8DD/	8r	.	(2B\	-rze-	.	2.r	.	.
8D 8DD/	8f#X 8d 8c/	.	.	.	.	.	.	.
*	*tremolo	*	*	*	*	*	*	*
8D 8DD/	8f#L 8d 8c/	.	.	.	.	.	.	.
8D 8DD/	8f# 8d 8c/	.	.	.	.	.	.	.
8D 8DD/	8f# 8d 8c/	.	4A/)	.	.	.	.	.
8DJ 8DD/	8f#J 8d 8c/	.	.	.	.	.	.	.
*Xtremolo	*Xtremolo	*	*	*	*	*	*	*
=43	=43	=43	=43	=43	=43	=43	=43	=43
8G 8GG/	8g 8d 8B/	p	4G/	-niu.	.	2.r	.	.
8dL 8B 8G\	8r	.	.	.	.	.	.	.
8d 8B 8G\	8r	.	4r	.	.	.	.	.
8dJ 8B 8G\	(16ddd\LL	<	.	.	.	.	.	.
.	16ccc\JJ	.	.	.	.	.	.	.
8d#XL 8B 8G\	8bb'\L)	.	4r	.	.	.	.	.
8d#J 8B 8G\	(16bb\L	.	.	.	.	.	.	.
!	!LO:SIC:v:s=16aa\JJ	!	!	!	!	!	!	!
.	16gg\JJ	[[	.	.	.	.	.	.
=44	=44	=44	=44	=44	=44	=44	=44	=44
*tremolo	*	*	*	*	*	*	*	*
8eL 8c 8G\	8gg'\L)	.	4r	.	.	2.r	.	.
8e 8c 8G\	(16gg\L	.	.	.	.	.	.	.
.	16ff#X\JJ	.	.	.	.	.	.	.
8e 8c 8G\	8ee'\L)	.	8r	.	.	.	.	.
*Xtremolo	*	*	*	*	*	*	*	*
8eJ 8c 8G\	(16ee\L	.	8c\	Bo	.	.	.	.
.	16dd\JJ	.	.	.	.	.	.	.
8e-XL 8c 8G\	8cc'\L)	.	8c\	gdy	.	.	.	.
8e-J 8c 8G\	(16cc\L	.	8c\	mnie	.	.	.	.
.	16b\JJ	.	.	.	.	.	.	.
=45	=45	=45	=45	=45	=45	=45	=45	=45
8dL 8c 8F#X\	4a/)	.	2c\	szczę-	.	2.r	.	.
8dJ 8c 8F#\	.	.	.	.	.	.	.	.
*tremolo	*	*	*	*	*	*	*	*
8dL 8c 8F#\	8r	.	.	.	.	.	.	.
8d 8c 8F#\	(16a/LL	.	.	.	.	.	.	.
.	16g/JJ	.	.	.	.	.	.	.
8d 8c 8F#\	8f#X'/L)	.	4A/	-ściem	.	.	.	.
8dJ 8c 8F#\	(16f#/L	.	.	.	.	.	.	.
.	16e/JJ	.	.	.	.	.	.	.
*Xtremolo	*	*	*	*	*	*	*	*
=46	=46	=46	=46	=46	=46	=46	=46	=46
*^	*	*	*	*	*	*	*	*
8F#X/	8F#\L	8d'/L)	.	4.d\	u-	.	2.r	.	.
8ryy	8cJ 8A\	(16f#X/L	.	.	.	.	.	.	.
.	.	16g/JJ	.	.	.	.	.	.	.
8F#/	8F#\L	8a'/L)	.	.	.	.	.	.	.
8ryy	8cJ 8A\	(<16a/L	.	8A/	-śmiech	.	.	.	.
.	.	16b/JJ	.	.	.	.	.	.	.
8D/	8D\L	8cc'\L)	.	8G#X/	twój	.	.	.	.
8ryy	8cJ 8A 8F#\	(16cc\L	.	8A/	ob-	.	.	.	.
.	.	16dd\JJ	.	.	.	.	.	.	.
*v	*v	*	*	*	*	*	*	*	*
!!LO:LB:g=original
=47	=47	=47	=47	=47	=47	=47	=47	=47
.	.	.	4qqc/	-da-	.	.	.	.
!	!LO:TX:t=P:problem:brak zakończenia łuku	!	!	!	!	!	!	!
8BL 8G\	4b\)	.	2B\	-rzy	.	2.r	.	.
8d 8B 8G\	.	.	.	.	.	.	.	.
8d 8B 8G\	8r	<	.	.	.	.	.	.
8dJ 8B 8G\	(16ddd\LL	.	.	.	.	.	.	.
.	16ccc\JJ	.	.	.	.	.	.	.
8d#XL 8B 8G\	8bb'\L)	.	4r	.	.	.	.	.
8d#J 8B 8G\	(16bb\L	.	.	.	.	.	.	.
!	!LO:SIC:v:s=16aa\JJ	!	!	!	!	!	!	!
.	16gg\JJ	[[	.	.	.	.	.	.
=48	=48	=48	=48	=48	=48	=48	=48	=48
*tremolo	*	*	*	*	*	*	*	*
8eL 8c 8G\	8gg'\L)	.	4r	.	.	2.r	.	.
8e 8c 8G\	(16gg\L	>	.	.	.	.	.	.
.	16ff#X\JJ	.	.	.	.	.	.	.
8e 8c 8G\	8ee'\L)	.	8r	.	.	.	.	.
*Xtremolo	*	*	*	*	*	*	*	*
8eJ 8c 8G\	(16ee\L	.	8c\	Ja	.	.	.	.
.	16dd\JJ	.	.	.	.	.	.	.
8e-XL 8c 8G\	8cc'\L)	]	8c\	wraz	.	.	.	.
8e-J 8c 8G\	(16cc\L	.	8c\	po-	.	.	.	.
.	16b\JJ	.	.	.	.	.	.	.
=49	=49	=49	=49	=49	=49	=49	=49	=49
*tremolo	*	*	*	*	*	*	*	*
8dL 8c 8F#X\	4a'>/)	p	2c\	-rzu-	.	2.r	.	.
8d 8c 8F#\	.	.	.	.	.	.	.	.
8d 8c 8F#\	8r	.	.	.	.	.	.	.
8d 8c 8F#\	(16b/LL	.	.	.	.	.	.	.
.	16a/JJ	.	.	.	.	.	.	.
8d 8c 8F#\	8f#X'/L)	.	8A/	-cę	.	.	.	.
8dJ 8c 8F#\	(16f#/L	.	8d\	rze-	.	.	.	.
.	16e/JJ	.	.	.	.	.	.	.
*Xtremolo	*	*	*	*	*	*	*	*
=50	=50	=50	=50	=50	=50	=50	=50	=50
8cL 8A 8F#X\	8d'/L)	.	2d\	-mio-	.	2.r	.	.
8cJ 8A 8F#\	16d'/L	<	.	.	.	.	.	.
.	16e'/JJ	.	.	.	.	.	.	.
8cL 8A\	16f#X'/LL	.	.	.	.	.	.	.
.	16g'/	.	.	.	.	.	.	.
8cJ 8A\	16a'/	.	.	.	.	.	.	.
.	16b'/JJ	.	.	.	.	.	.	.
8cL 8A 8D\	16cc'\LL	.	8G#X/	-sło	.	.	.	.
.	16dd'\	.	.	.	.	.	.	.
8cJ 8A 8D\	16ee'\	[[	8A/	kor-	.	.	.	.
.	16ff#X'\JJ	.	.	.	.	.	.	.
=51	=51	=51	=51	=51	=51	=51	=51	=51
!	!	!LO:DY:b:rj	!	!	!	!	!	!
4B 4G\	8gg\L	f	4c\	-sa-	.	2.r	.	.
.	16g\L	p	.	.	.	.	.	.
.	16gg\JJ	.	.	.	.	.	.	.
*	*tremolo	*	*	*	*	*	*	*
4r	16g\LL	.	4B\	-rzy	.	.	.	.
.	16gg\	.	.	.	.	.	.	.
.	16g\	.	.	.	.	.	.	.
.	16gg\	.	.	.	.	.	.	.
4r	16g\	.	4r	.	.	.	.	.
.	16gg\	.	.	.	.	.	.	.
.	16g\	.	.	.	.	.	.	.
.	16gg\JJ	.	.	.	.	.	.	.
!!LO:LB:g=original
=52	=52	=52	=52	=52	=52	=52	=52	=52
*	*	*	*^	*	*	*	*	*
*	*	*	*	*cue	*	*	*	*	*
2.G\	16g\LL	.	4g\	4G/	Speł-	.	2.r	.	.
.	16gg\	<	.	.	.	.	.	.	.
.	16g\	.	.	.	.	.	.	.	.
.	16gg\	.	.	.	.	.	.	.	.
.	16g\	.	4g\	4B/	-nię	.	.	.	.
.	16gg\	.	.	.	.	.	.	.	.
.	16g\	.	.	.	.	.	.	.	.
.	16gg\	.	.	.	.	.	.	.	.
.	16g\	.	4g\	8d/L	co	.	.	.	.
.	16gg\	.	.	.	.	.	.	.	.
.	16g\	[	.	8g/J	.	.	.	.	.
.	16gg\JJ	.	.	.	.	.	.	.	.
*	*Xtremolo	*	*	*Xcue	*	*	*	*	*
*	*	*	*v	*v	*	*	*	*	*
=53	=53	=53	=53	=53	=53	=53	=53	=53
!	!	!LO:DY:b:rj	!	!	!	!	!	!
4A-X\	16a-X\LL	f	4a-X\	ka-	.	2.r	.	.
.	16aa-X\	.	.	.	.	.	.	.
.	16a-\	.	.	.	.	.	.	.
.	16aa-\JJ	.	.	.	.	.	.	.
*	*tremolo	*	*	*	*	*	*	*
!	!LO:TX:b:i:t=simile	!	!	!	!	!	!	!
4D\	16ddLL 16d/	.	4d\	-żesz	.	.	.	.
.	16dd 16d/	.	.	.	.	.	.	.
.	16dd 16d/	.	.	.	.	.	.	.
.	16ddJJ 16d/	.	.	.	.	.	.	.
4F\	16ffLL 16f/	.	8f\	pój-	.	.	.	.
.	16ff 16f/	.	.	.	.	.	.	.
.	16ff 16f/	.	8f\	-dę	.	.	.	.
.	16ffJJ 16f/	.	.	.	.	.	.	.
=54	=54	=54	=54	=54	=54	=54	=54	=54
4BB/	16bLL 16B/	.	(4B\	w świat	.	2.r	.	.
.	16b 16B/	.	.	.	.	.	.	.
.	16b 16B/	.	.	.	.	.	.	.
.	16bJJ 16B/	.	.	.	.	.	.	.
4D\	16ddLL 16d/	.	4d\)	.	.	.	.	.
.	16dd 16d/	.	.	.	.	.	.	.
.	16dd 16d/	.	.	.	.	.	.	.
.	16ddJJ 16d/	.	.	.	.	.	.	.
4GG/	16gLL 16G/	.	4G/	da-	.	.	.	.
.	16g 16G/	.	.	.	.	.	.	.
.	16g 16G/	.	.	.	.	.	.	.
.	16gJJ 16G/	.	.	.	.	.	.	.
=55	=55	=55	=55	=55	=55	=55	=55	=55
2.AA-X^>/	16a-XLL 16A-X/	.	(2.A-X/	-le-	.	2.r	.	.
.	16a- 16A-/	.	.	.	.	.	.	.
.	16a- 16A-/	.	.	.	.	.	.	.
.	16a- 16A-/	.	.	.	.	.	.	.
.	16a- 16A-/	.	.	.	.	.	.	.
.	16a- 16A-/	.	.	.	.	.	.	.
.	16a- 16A-/	.	.	.	.	.	.	.
.	16a- 16A-/	.	.	.	.	.	.	.
.	16a- 16A-/	.	.	.	.	.	.	.
.	16a- 16A-/	.	.	.	.	.	.	.
.	16a- 16A-/	.	.	.	.	.	.	.
.	16a-JJ 16A-/	.	.	.	.	.	.	.
*	*Xtremolo	*	*	*	*	*	*	*
=56	=56	=56	=56	=56	=56	=56	=56	=56
*tremolo	*	*	*	*	*	*	*	*
!	!	!LO:DY:b:rj	!	!	!	!	!	!
16GGG/LL	4g 4G/	f	2.G/)	.	.	2.r	.	.
16GG/	.	.	.	.	.	.	.	.
16GGG/	.	.	.	.	.	.	.	.
16GG/	.	.	.	.	.	.	.	.
*	*tremolo	*	*	*	*	*	*	*
16GGG/	16ffLL 16dd\	.	.	.	.	.	.	.
16GG/	16bb\	.	.	.	.	.	.	.
16GGG/	16ff 16dd\	.	.	.	.	.	.	.
16GG/	16bb\	.	.	.	.	.	.	.
16GGG/	16ff 16dd\	.	.	.	.	.	.	.
16GG/	16bb\	.	.	.	.	.	.	.
16GGG/	16ff 16dd\	.	.	.	.	.	.	.
16GG/JJ	16bb\JJ	.	.	.	.	.	.	.
*Xtremolo	*Xtremolo	*	*	*	*	*	*	*
=57	=57	=57	=57	=57	=57	=57	=57	=57
4CC/	8cccL 8ee-X 8cc\	sf	4c 4C/	-ki	.	2.r	.	.
.	16cc\L	p	.	.	.	.	.	.
.	16ccc\JJ	.	.	.	.	.	.	.
*	*tremolo	*	*	*	*	*	*	*
4r	16cc\LL	.	4r	.	.	.	.	.
.	16ccc\	.	.	.	.	.	.	.
.	16cc\	.	.	.	.	.	.	.
.	16ccc\	.	.	.	.	.	.	.
4r	16cc\	.	4r	.	.	.	.	.
.	16ccc\	.	.	.	.	.	.	.
.	16cc\	.	.	.	.	.	.	.
.	16ccc\JJ	.	.	.	.	.	.	.
=58	=58	=58	=58	=58	=58	=58	=58	=58
2.c\	16cc\LL	.	4c\	Speł-	.	2.r	.	.
.	16ccc\	<	.	.	.	.	.	.
.	16cc\	.	.	.	.	.	.	.
.	16ccc\	.	.	.	.	.	.	.
.	16cc\	.	4c\	-nię	.	.	.	.
.	16ccc\	.	.	.	.	.	.	.
.	16cc\	.	.	.	.	.	.	.
.	16ccc\	.	.	.	.	.	.	.
.	16cc\	.	4c\	co	.	.	.	.
.	16ccc\	.	.	.	.	.	.	.
.	16cc\	[	.	.	.	.	.	.
.	16ccc\JJ	.	.	.	.	.	.	.
*	*Xtremolo	*	*	*	*	*	*	*
!!LO:LB:g=original
=59	=59	=59	=59	=59	=59	=59	=59	=59
(4d-X\	16dd-X\LL	.	4d-X\	ka-	.	2.r	.	.
.	16ddd-X\	.	.	.	.	.	.	.
.	16dd-\	.	.	.	.	.	.	.
.	16ddd-\JJ	.	.	.	.	.	.	.
*	*tremolo	*	*	*	*	*	*	*
!	!LO:TX:a:i:t=simile	!	!	!	!	!	!	!
4G\	16ggLL 16g\	.	4G/	-żesz	.	.	.	.
.	16gg 16g\	.	.	.	.	.	.	.
.	16gg 16g\	.	.	.	.	.	.	.
.	16ggJJ 16g\	.	.	.	.	.	.	.
4B-X\)	16bb-XLL 16b-X\	.	8B-X\	pój-	.	.	.	.
.	16bb- 16b-\	.	.	.	.	.	.	.
.	16bb- 16b-\	.	8B-\	-dę	.	.	.	.
.	16bb-JJ 16b-\	.	.	.	.	.	.	.
=60	=60	=60	=60	=60	=60	=60	=60	=60
(4En\	16eenLL 16en/	<	4EnX/	w świat	.	2.r	.	.
.	16ee 16e/	.	.	.	.	.	.	.
.	16ee 16e/	.	.	.	.	.	.	.
.	16eeJJ 16e/	.	.	.	.	.	.	.
4G\	16ggLL 16g\	.	4G/	.	.	.	.	.
.	16gg 16g\	.	.	.	.	.	.	.
.	16gg 16g\	.	.	.	.	.	.	.
.	16ggJJ 16g\	.	.	.	.	.	.	.
4C/)	16ccLL 16c/	[	4c\	da-	.	.	.	.
.	16cc 16c/	.	.	.	.	.	.	.
.	16cc 16c/	.	.	.	.	.	.	.
.	16ccJJ 16c/	.	.	.	.	.	.	.
=61	=61	=61	=61	=61	=61	=61	=61	=61
2.D-X\	16dd-XLL 16d-X/	fz >	2.d-X\	-le-	.	2.r	.	.
.	16dd- 16d-/	.	.	.	.	.	.	.
.	16dd- 16d-/	.	.	.	.	.	.	.
.	16dd- 16d-/	.	.	.	.	.	.	.
.	16dd- 16d-/	.	.	.	.	.	.	.
.	16dd- 16d-/	.	.	.	.	.	.	.
.	16dd- 16d-/	.	.	.	.	.	.	.
.	16dd- 16d-/	]	.	.	.	.	.	.
.	16dd- 16d-/	.	.	.	.	.	.	.
.	16dd- 16d-/	.	.	.	.	.	.	.
.	16dd- 16d-/	.	.	.	.	.	.	.
.	16dd-JJ 16d-/	.	.	.	.	.	.	.
=62	=62	=62	=62	=62	=62	=62	=62	=62
2.C/	16ccLL 16c/	p	4c\	-ki	.	2.r	.	.
.	16cc 16c/	.	.	.	.	.	.	.
.	16cc 16c/	.	.	.	.	.	.	.
.	16cc 16c/	.	.	.	.	.	.	.
.	16cc 16c/	.	4r	.	.	.	.	.
.	16cc 16c/	.	.	.	.	.	.	.
.	16cc 16c/	.	.	.	.	.	.	.
.	16ccJJ 16c/	.	.	.	.	.	.	.
.	16b-XLL 16e 16c/	.	4c\	i	.	.	.	.
.	16b- 16e 16c/	.	.	.	.	.	.	.
.	16b- 16e 16c/	.	.	.	.	.	.	.
.	16b-JJ 16e 16c/	.	.	.	.	.	.	.
=63	=63	=63	=63	=63	=63	=63	=63	=63
8FF/L	16a-XLL 16f 16c/	.	[2.a-X\	wier-	.	2.r	.	.
.	16a- 16f 16c/	.	.	.	.	.	.	.
8FF/	16a- 16f 16c/	.	.	.	.	.	.	.
.	16a- 16f 16c/	.	.	.	.	.	.	.
8AA-X/	16a- 16f 16c/	.	.	.	.	.	.	.
.	16a- 16f 16c/	.	.	.	.	.	.	.
8C/J	16a- 16f 16c/	.	.	.	.	.	.	.
.	16a- 16f 16c/	.	.	.	.	.	.	.
4FF/	16a- 16f 16c/	.	.	.	.	.	.	.
.	16a- 16f 16c/	.	.	.	.	.	.	.
.	16a- 16f 16c/	.	.	.	.	.	.	.
.	16a-JJ 16f 16c/	.	.	.	.	.	.	.
=64	=64	=64	=64	=64	=64	=64	=64	=64
8r	16a-XLL 16f 16Bn/	.	4a-\]	.	.	2.r	.	.
.	16a- 16f 16B/	.	.	.	.	.	.	.
8DDn/L	16a- 16f 16B/	.	.	.	.	.	.	.
!	!	!LO:HP:b:t=cres	!	!	!	!	!	!
.	16a- 16f 16B/	<	.	.	.	.	.	.
8FF/	16a- 16f 16B/	.	4g\	-nym	.	.	.	.
.	16a- 16f 16B/	.	.	.	.	.	.	.
8AA-X/J	16a- 16f 16B/	.	.	.	.	.	.	.
.	16a- 16f 16B/	.	.	.	.	.	.	.
4DD/	16a- 16f 16B/	.	4f\	ci	.	.	.	.
.	16a- 16f 16B/	.	.	.	.	.	.	.
.	16a- 16f 16B/	.	.	.	.	.	.	.
.	16a-JJ 16f 16B/	.	.	.	.	.	.	.
=65	=65	=65	=65	=65	=65	=65	=65	=65
8r	16a-XLL 16e-X 16c/	.	2e-X\	bę-	.	2.r	.	.
.	16a- 16e- 16c/	.	.	.	<	.	.	.
8EE-X/L	16a- 16e- 16c/	.	.	.	.	.	.	.
.	16a- 16e- 16c/	.	.	.	.	.	.	.
8AA-X/	16a- 16e- 16c/	.	.	.	.	.	.	.
.	16a- 16e- 16c/	.	.	.	.	.	.	.
8C/J	16a- 16e- 16c/	.	.	.	.	.	.	.
.	16a- 16e- 16c/	.	.	.	.	.	.	.
4EE-/	16a- 16e- 16c/	.	8d\	-dę	[[	.	.	.
.	16a- 16e- 16c/	.	.	.	.	.	.	.
.	16a- 16e- 16c/	.	8e-\	na	.	.	.	.
.	16a-JJ 16e- 16c/	.	.	.	.	.	.	.
!!LO:PB:g=original
=66	=66	=66	=66	=66	=66	=66	=66	=66
!	!LO:SIC:v:s=8gL 8e-X 8d-X 8B-/	!	!	!	!	!	!	!
8r	8gL 8e-X 8d-X 8B/	.	(2f\	wie-	.	2.r	.	.
!	!LO:SIC:v:s=8g 8e- 8d- 8B-/	!	!	!	!	!	!	!
8EE-X/L	8g 8e- 8d- 8B/	.	.	.	.	.	.	.
!	!LO:SIC:v:s=8g 8e- 8d- 8B-/	!	!	!	!	!	!	!
8GG/	8g 8e- 8d- 8B/	.	.	.	.	.	.	.
!	!LO:SIC:v:s=8g 8e- 8d- 8B-/	!	!	!	!	!	!	!
8BB-X/J	8g 8e- 8d- 8B/	.	.	.	.	.	.	.
!	!LO:SIC:v:s=8g 8e- 8d- 8B-/	!	!	!	!	!	!	!
4EE-/	8g 8e- 8d- 8B/	.	4e-X\)	.	.	.	.	.
!	!LO:SIC:v:s=8gJ 8e- 8d- 8B-/	!	!	!	!	!	!	!
.	8gJ 8e- 8d- 8B/	.	.	.	.	.	.	.
*	*Xtremolo	*	*	*	*	*	*	*
=67	=67	=67	=67	=67	=67	=67	=67	=67
8AA-X/	8a-X 8e-X 8c/	f	4A-X/	-ki	.	2.r	.	.
(16e-X\LL	(16ee-X\LL	.	.	.	.	.	.	.
16d-X\JJ	16dd-X\JJ	.	.	.	.	.	.	.
8c\L)	8cc'\L)	.	4r	.	.	.	.	.
(16c\L	(16csc\L	.	.	.	.	.	.	.
16B-\JJ	16b-X\JJ	.	.	.	.	.	.	.
4A-X\)	4a-X'>/)	.	4r	.	.	.	.	.
=68	=68	=68	=68	=68	=68	=68	=68	=68
(<[2.E-X 2.GG^>/	(2.b-X (2.d-X/	.	4.f\	Przyj-	.	2.r	.	.
.	.	.	4e-X\	-mij	.	.	.	.
.	.	.	8d-X\	u-	.	.	.	.
=69	=69	=69	=69	=69	=69	=69	=69	=69
.	.	.	4qqd-X/	-czu-	.	.	.	.
8E-] 8AA-X/)	8a-X 8c/))	.	2c\	-cie	.	2.r	.	.
(16e-X\LL	(16ee-X\LL	.	.	.	.	.	.	.
16d-\JJ	16dd-X\JJ	.	.	.	.	.	.	.
8c'\L)	8cc'\L)	.	.	.	.	.	.	.
(16c\L	(16cc\L	.	.	.	.	.	.	.
16B-X\JJ	16b-X\JJ	.	.	.	.	.	.	.
4A-X'\)	4a-X'>/)	.	8r	.	.	.	.	.
.	.	.	8c\	co	.	.	.	.
=70	=70	=70	=70	=70	=70	=70	=70	=70
([2.E-X 2.GG^>/	(2.b-X (2.d-X/	.	4f\	w tem	.	2.r	.	.
.	.	.	4e-X\	ser-	.	.	.	.
.	.	.	4d-X\	-cu	.	.	.	.
!!LO:LB:g=original
=71	=71	=71	=71	=71	=71	=71	=71	=71
!	!	!	!LO:SIC:v:s=4qqd-/	!	!	!	!	!
.	.	.	4qqd/	pa-	.	.	.	.
8E-] 8AA-X/)	8a-X 8c/))	.	2c\	-ła	.	2.r	.	.
(16e-X\LL	(16ee-X\LL	.	.	.	.	.	.	.
16d-X\JJ	16dd-X\JJ	.	.	.	.	.	.	.
8c'\L)	8cc'\L)	.	.	.	.	.	.	.
(16c\L	(16cc\L	.	.	.	.	.	.	.
16B-X\JJ	16b-X\JJ	.	.	.	.	.	.	.
4A-X'\)	4a-X'/)	.	4r	.	.	.	.	.
=72	=72	=72	=72	=72	=72	=72	=72	=72
([2.E-X 2.GG^>/	(2.b-X (2.d-X/	.	4f\	Jam	.	2.r	.	.
.	.	.	4e-X\	go-	.	.	.	.
.	.	.	4d-X\	-tów	.	.	.	.
=73	=73	=73	=73	=73	=73	=73	=73	=73
.	.	.	4qqd-X/	um-	.	.	.	.
8E-] 8AA-X/)	8a-X 8c/))	.	2c\	-rzeć	.	2.r	.	.
(16e-X\LL	(16ee-X\LL	.	.	.	.	.	.	.
16d-X\JJ	16dd-X\JJ	.	.	.	.	.	.	.
8c'\L)	8cc'\L)	.	.	.	.	.	.	.
(16c\L	(16cc\L	.	.	.	.	.	.	.
16B-X\JJ	16b-X\JJ	.	.	.	.	.	.	.
4A-X'\)	4a-X'>/)	.	4r	.	.	.	.	.
=74	=74	=74	=74	=74	=74	=74	=74	=74
(<[2.E-X 2.GG^>/	(2.b-X (2.d-X/	.	8f\	by-	.	2.r	.	.
.	.	.	8f\	-leś	.	.	.	.
.	.	.	4e-X\	mnie	.	.	.	.
.	.	.	4d-X\	ko-	.	.	.	.
=75	=75	=75	=75	=75	=75	=75	=75	=75
.	.	.	4qqd-X/	-cha-	.	.	.	.
8E-]L 8AA-X\)	8a-XL 8c/))	.	2c\	-ła	.	2.r	.	.
8A-XJ 8AA-\	8a-J 8e-X 8c/	.	.	.	.	.	.	.
*tremolo	*tremolo	*	*	*	*	*	*	*
8A-L 8AA-\	8a-L 8e- 8c/	.	.	.	.	.	.	.
8A- 8AA-\	8a- 8e- 8c/	.	.	.	.	.	.	.
8A- 8AA-\	8a- 8e- 8c/	.	4r	.	.	.	.	.
8A-J 8AA-\	8a-J 8e- 8c/	.	.	.	.	.	.	.
!!LO:LB:g=original
=76	=76	=76	=76	=76	=76	=76	=76	=76
8AnL 8AAn\	8f#XL 8e-X 8c/	.	4e-X\	jam	.	2.r	.	.
8A 8AA\	8f# 8e- 8c/	.	.	.	.	.	.	.
8A 8AA\	8f# 8e- 8c/	.	4d\	go-	.	.	.	.
8AJ 8AA\	8f# 8e- 8c/	.	.	.	.	.	.	.
*Xtremolo	*	*	*	*	*	*	*	*
8AA/L	8f# 8e- 8c/	.	4c\	-tów	.	.	.	.
8AA/J	8f#J 8e- 8c/	.	.	.	.	.	.	.
*	*Xtremolo	*	*	*	*	*	*	*
=77	=77	=77	=77	=77	=77	=77	=77	=77
.	.	.	4qqc/	um-	.	.	.	.
8BB-X\L	8gL 8e-X 8B-X/	.	2B-X\	-rzeć	.	2.r	.	.
8GJ 8E-X 8BB-\	8g/J	.	.	.	.	.	.	.
*tremolo	*	*	*	*	*	*	*	*
8GL 8E- 8BB-\	8g\L	<	.	.	.	.	.	.
8G 8E- 8BB-\	8b-X\	.	.	.	.	.	.	.
8G 8E- 8BB-\	8ee-X\	.	8B-\	by-	.	.	.	.
8GJ 8E- 8BB-\	8gg\J	[[	8e-X\	-leś	.	.	.	.
=78	=78	=78	=78	=78	=78	=78	=78	=78
*	*tremolo	*	*	*	*	*	*	*
8A-XL 8F 8BB-X\	16bb-XLL 16ff\	.	(2g\	mnie	.	2.r	.	.
.	16dd\	.	.	.	.	.	.	.
8A- 8F 8BB-\	16bb- 16ff\	.	.	.	.	.	.	.
.	16dd\	.	.	.	.	.	.	.
8A- 8F 8BB-\	16bb- 16ff\	.	.	.	.	.	.	.
.	16dd\	.	.	.	.	.	.	.
8A-J 8F 8BB-\	16bb- 16ff\	.	.	.	.	.	.	.
.	16dd\JJ	.	.	.	.	.	.	.
*Xtremolo	*Xtremolo	*	*	*	*	*	*	*
!LO:SIC:v:s=8BB-L 8BBB-/	!	!	!	!	!	!	!	!
8BB-L 8BBB/	16ddLL 16b-X 16a-X/	.	8.f\)	.	.	.	.	.
.	16f/	.	.	.	.	.	.	.
!LO:SIC:v:s=8BB-J 8BBB-/	!	!	!	!	!	!	!	!
8BB-J 8BBB/	16dd 16b- 16a-/	.	.	.	.	.	.	.
.	16f/JJ	.	16g\	ko-	.	.	.	.
=79	=79	=79	=79	=79	=79	=79	=79	=79
.	.	.	4qqf/	-cha-	.	.	.	.
8E-X 8EE-X/	8ee-X 8b-X 8g 8e-X/	.	2e-X\	-ła	.	2.r	.	.
16F\LL	16f/LL	.	.	.	.	.	.	.
16G\JJ	16g/JJ	.	.	.	.	.	.	.
16A-X\LL	16a-X/LL	.	.	.	.	.	.	.
16G\	16g/	.	.	.	.	.	.	.
16A-\	16a-/	.	.	.	.	.	.	.
!LO:SIC:v:s=16B-\JJ	!	!	!	!	!	!	!	!
16B\JJ	16b-/JJ	.	.	.	.	.	.	.
16c\LL	16cc\LL	.	4r	.	.	.	.	.
!LO:SIC:v:s=16B-\	!	!	!	!	!	!	!	!
16B\	16b-\	.	.	.	.	.	.	.
16c\	16cc\	.	.	.	.	.	.	.
16d\JJ	16dd\JJ	.	.	.	.	.	.	.
=80	=80	=80	=80	=80	=80	=80	=80	=80
4e-X\	4ee-X\	.	2.r	.	.	2ee-X\	W czem	.
4r	4r	.	.	.	.	.	.	.
4r	4r	.	.	.	.	8.b-X\	si-	.
.	.	.	.	.	.	16g/	-łę	.
!!LO:LB:g=original
=81	=81	=81	=81	=81	=81	=81	=81	=81
8E-X\L	8g/L	.	2.r	.	.	4f/	czer-	.
16F\L	16a-X/L	.	.	.	.	.	.	.
16G\JJ	16b-X/JJ	.	.	.	.	.	.	.
16A-X\LL	16cc\LL	.	.	.	.	4e-X/	-pie	.
16G\	16b-\	.	.	.	.	.	.	.
16A-\	16cc\	.	.	.	.	.	.	.
16B-X\JJ	16dd\JJ	.	.	.	.	.	.	.
!	!LO:SIC:v:s=16ee-\LL	!	!	!	!	!	!	!
16c\LL	16ee\LL	.	.	.	.	8r	.	.
16B-\	16dd\	.	.	.	.	.	.	.
!	!LO:SIC:v:s=16ee-\	!	!	!	!	!	!	!
16c\	16ee\	.	.	.	.	8ee-X\	ta	.
16d\JJ	16ff\JJ	.	.	.	.	.	.	.
=82	=82	=82	=82	=82	=82	=82	=82	=82
4e-X\	4gg\	.	2.r	.	.	2ee-X\	mi-	.
4r	4r	.	.	.	.	.	.	.
4r	4r	.	.	.	.	8.ff\	-łość	.
.	.	.	.	.	.	16gg\	sza-	.
=83	=83	=83	=83	=83	=83	=83	=83	=83
!	!	!LO:DY:b:rj	!	!	!	!	!	!
4A-X 4AA-X\	4aa-X 4ee-X 4cc 4a-X\	sf	2.r	.	.	4aa-X\	-lo-	.
4r	4r	.	.	.	.	4a-X/	-na	.
4r	4r	.	.	.	.	4r	.	.
=84	=84	=84	=84	=84	=84	=84	=84	=84
2.r	2.r	.	2.r	.	.	(8.aa-X\L	ta	.
.	.	.	.	.	.	16gg\Jk)	.	.
.	.	.	.	.	.	(8.ff\L	mi-	.
.	.	.	.	.	.	16ee-X\Jk)	.	.
.	.	.	.	.	.	8dd\	-łość	.
.	.	.	.	.	.	8cc\	sza-	.
=85	=85	=85	=85	=85	=85	=85	=85	=85
!	!	!LO:DY:b:rj	!	!	!	!	!	!
4B-X 4BB-X\	4gg 4ee-X 4b-X 4g\	sf	2.r	.	.	[2.b-X\	-lo-	.
4r	4r	.	.	.	.	.	.	.
4r	4r	.	.	.	.	.	.	.
=86	=86	=86	=86	=86	=86	=86	=86	=86
4BB-X 4BBB-X/	4aa-X 4ff 4dd 4b-X\	sf	2.r	.	.	8b-\L]	.	.
.	.	.	.	.	.	(16ee-X\L	.	.
.	.	.	.	.	.	16dd\JJ	.	.
4r	2r	.	.	.	.	16ff\LL	.	.
.	.	.	.	.	.	16ee-\	.	.
.	.	.	.	.	.	16dd\	.	.
.	.	.	.	.	.	16cc\JJ	.	.
4r	.	.	.	.	.	16b-X/LL	.	.
.	.	.	.	.	.	16a-/	.	.
.	.	.	.	.	.	16g/	.	.
.	.	.	.	.	.	16f/JJ)	.	.
!!LO:PB:g=original
=87	=87	=87	=87	=87	=87	=87	=87	=87
!	!	!LO:DY:b:rj	!	!	!	!	!	!
8E-X 8EE-X/	8gg 8ee-X 8b-X\	f	4r	.	.	4e-X/	-na	.
(16B-X\LL	(16b-/LL	.	.	.	.	.	.	.
16A-\JJ	16a-X/JJ	.	.	.	.	.	.	.
8G'\L)	8g'/L)	.	4r	.	.	4rg	.	.
(16G\L	(16g/L	.	.	.	.	.	.	.
16F\JJ	16f/JJ	.	.	.	.	.	.	.
4E-X'\)	4e-X'/)	.	8r	.	.	4r	.	.
.	.	.	8g\	W na-	.	.	.	.
=88	=88	=88	=88	=88	=88	=88	=88	=88
8D 8DD/	8bbn 8gg 8ff 8dd\	sf	4g\	-dzie-	.	2.r	.	.
(16A-X\LL	(16a-X/LL	.	.	.	.	.	.	.
16G\JJ	16g/JJ	.	.	.	.	.	.	.
8F'\L)	8f'/L)	.	4d\	-i	.	.	.	.
(16F\L	(16f/L	.	.	.	.	.	.	.
16E-X\JJ	16e-X/JJ	.	.	.	.	.	.	.
4D'\)	4d'/)	.	8r	.	.	.	.	.
.	.	.	8g\	w na-	.	.	.	.
=89	=89	=89	=89	=89	=89	=89	=89	=89
8C 8CC/	8ccc 8gg 8ee-X 8cc\	.	4e-X\	-dzie-	.	2.r	.	.
(16G\LL	(16g/LL	.	.	.	.	.	.	.
16F\JJ	16f/JJ	.	.	.	.	.	.	.
8E-X'\L)	8e-X'/L)	.	8c\	-i	.	.	.	.
(16E-\L	(16e-/L	.	8r	.	.	.	.	.
16D\JJ	16d/JJ	.	.	.	.	.	.	.
8C'/)	8c'/)	.	8.e-\	że	.	.	.	.
8r	8r	.	.	.	.	.	.	.
.	.	.	16e-\	się	.	.	.	.
=90	=90	=90	=90	=90	=90	=90	=90	=90
!	!LO:SIC:v:s=8ccc-X 8aa-X 8ee- 8cc\	!	!	!	!	!	!	!
8AA-X 8AAA-X/	8ccc-X 8aa-X 8ee 8cc\	.	4c\	ser-	.	2.r	.	.
(16E-X\LL	(16e-X/LL	.	.	.	.	.	.	.
16D-X\JJ	16d-X/JJ	.	.	.	.	.	.	.
8C'/L)	8c'/L)	.	4A-X/	-ce	.	.	.	.
(16C/L	(16c/L	.	.	.	.	.	.	.
16BB-X/JJ	16B-X/JJ	.	.	.	.	.	.	.
!	!LO:SIC:v:s=8A-'/)	!	!	!	!	!	!	!
8AA-'/)	8A'/)	.	8.A-/	twe	.	.	.	.
8r	8r	.	.	.	.	.	.	.
.	.	.	16c\	prze-	.	.	.	.
!!LO:LB:g=original
=91	=91	=91	=91	=91	=91	=91	=91	=91
*tremolo	*	*	*	*	*	*	*	*
!	!	!LO:DY:b:rj	!	!	!	!	!	!
8D-XL 8AA-X 8FF 8DD-X/	8d-X/L	ff	2.f\	-ko-	.	2.r	.	.
8D- 8AA- 8FF 8DD-/	8f/	.	.	.	.	.	.	.
8D- 8AA- 8FF 8DD-/	8a-X/	.	.	.	.	.	.	.
8D- 8AA- 8FF 8DD-/	8dd-X/J	.	.	.	.	.	.	.
8D- 8AA- 8FF 8DD-/	8ff\L	.	.	.	.	.	.	.
8D-J 8AA- 8FF 8DD-/	8aa-X\J	.	.	.	.	.	.	.
*Xtremolo	*	*	*	*	*	*	*	*
=92	=92	=92	=92	=92	=92	=92	=92	=92
8D-X 8AA-X 8DD-X/	8ddd-X\L	ff	4d-X\	-na	.	2.r	.	.
*	*8va	*	*	*	*	*	*	*
8AA-X/L	8eee-X 8ccc 8aa-X\	.	.	.	.	.	.	.
!	!LO:SIC:v:s=8fff 8ddd- 8aa-\	!	!	!	!	!	!	!
8D-/	8fff 8ddd 8aa-\	.	4r	.	.	.	.	.
8AA-/	8eee- 8ccc 8aa-\	.	.	.	.	.	.	.
!	!LO:SIC:v:s=8fff 8ddd- 8aa-\	!	!	!	!	!	!	!
8D-/	8fff 8ddd 8aa-\	.	4r	.	.	.	.	.
8AA-/J	8eee-J 8ccc 8aa-\	.	.	.	.	.	.	.
=93	=93	=93	=93	=93	=93	=93	=93	=93
*	*^	*	*	*	*	*	*	*
8D-X\	8fff 8ddd-X 8aa-X\	4ryy	.	2.r	.	.	2.r	.	.
*	*X8va	*	*	*	*	*	*	*	*
8r	8r	.	.	.	.	.	.	.	.
!	!LO:S:s=1:note:problem=note-level slur	!	!	!	!	!	!	!	!
(4d-X\	[2ff (2dd-/	[2an^\	.	.	.	.	.	.	.
4c\)	.	.	.	.	.	.	.	.	.
=94	=94	=94	=94	=94	=94	=94	=94	=94	=94
!	!LO:S:s=1:note:problem=note-level slur	!	!	!	!	!	!	!	!
(2.Bn\	2.ff] 2.ddn/)	4a\]	p	4r	.	.	2.r	.	.
.	.	2g^\	.	8r	.	.	.	.	.
.	.	.	.	8g\	O	.	.	.	.
.	.	.	.	8g\	pięk-	.	.	.	.
.	.	.	.	8d\	-na	.	.	.	.
=95	=95	=95	=95	=95	=95	=95	=95	=95	=95
4c\)	[2.ee-X [2.cc/	2g\	.	4f\	Ma-	.	2.r	.	.
(4c^<\	.	.	.	4e-X\	-rja	.	.	.	.
4B-X\	.	[4g-X\	.	4r	.	.	.	.	.
=96	=96	=96	=96	=96	=96	=96	=96	=96	=96
2.A\)	2.ee-] 2.cc/]	4g-\]	.	4g-X\	by-	.	2.r	.	.
.	.	[2f^\	.	4f\	-łaż-	.	.	.	.
.	.	.	.	8.e-X\	-byś	.	.	.	.
.	.	.	.	16e-\	tak	.	.	.	.
=97	=97	=97	=97	=97	=97	=97	=97	=97	=97
.	.	.	.	4qqe-X/	sro-	.	.	.	.
(4B-X\	[2.dd-X [2.b-X/	2f\]	.	2d-X\	-gą	.	2.r	.	.
4B-\	.	.	.	.	.	.	.	.	.
4A-X\	.	[4f-X^\	.	4r	.	.	.	.	.
!!LO:LB:g=original
=98	=98	=98	=98	=98	=98	=98	=98	=98	=98
2G\)	2.dd-] 2.b-/]	4f-\]	.	4f-X\	by	.	2.r	.	.
.	.	2e-X^\	.	4e-\	tę	.	.	.	.
4GG/	.	.	.	4d-X\	po-	.	.	.	.
*	*v	*v	*	*	*	*	*	*	*
=99	=99	=99	=99	=99	=99	=99	=99	=99
!	!	!	!LO:SIC:v:s=4qqd-/	!	!	!	!	!
.	.	.	4qqd/	-cie-	.	.	.	.
*^	*	*	*	*	*	*	*	*
!	!	!	!LO:DY:b:rj	!	!	!	!	!	!
(8AA-X/L	4AA-\	4cc 4a-X 4e-X/	p	2c\	-chę	.	2.r	.	.
8E-XJ 8C/	.	.	.	.	.	.	.	.	.
8AA-/L	4AA-\	4r	.	.	.	.	.	.	.
8E-J 8C/	.	.	.	.	.	.	.	.	.
8GG/L	4GG\	4r	.	8r	.	.	.	.	.
8E-J 8C/)	.	.	.	8c\	o-	.	.	.	.
=100	=100	=100	=100	=100	=100	=100	=100	=100	=100
8FF#X/L	4FF#\	8r	.	4c\	-de-	.	2.r	.	.
8E-XJ 8C/	.	(8eee-X\L	>	.	.	.	.	.	.
8FF#/L	4FF#\	8ccc\	.	4c\	-brać	.	.	.	.
8E-J 8C/	.	8aan\	.	.	.	.	.	.	.
8GG/L	4GG\	8gg\	.	4c\	o-	.	.	.	.
8E-J 8C/	.	8ee-X\J	]	.	.	.	.	.	.
=101	=101	=101	=101	=101	=101	=101	=101	=101	=101
8AA-X/L	4AA-\	4cc\)	.	4e-X\	-de	.	2.r	.	.
8E-XJ 8C/	.	.	.	.	.	.	.	.	.
8AA-/L	4AA-\	4r	.	4c\	mnie	.	.	.	.
8E-J 8C/	.	.	.	.	.	.	.	.	.
8GG/L	4GG\	4r	.	4r	.	.	.	.	.
8E-J 8C/	.	.	.	.	.	.	.	.	.
=102	=102	=102	=102	=102	=102	=102	=102	=102	=102
8FF#X/L	4FF#\	8r	.	4c\	ze	.	2.r	.	.
8E-XJ 8C/	.	(8eee-X\L	>	.	.	.	.	.	.
8FF#/L	4FF#\	8ccc\	.	4c\	w tem	.	.	.	.
8E-J 8C/	.	8aa-X\	.	.	.	.	.	.	.
8GG/L	4GG\	8gg\	.	4c\	u-	.	.	.	.
8E-J 8C/	.	8ee-X\J	]	.	.	.	.	.	.
=103	=103	=103	=103	=103	=103	=103	=103	=103	=103
8AA-X/L	4AA-\	4cc\)	.	4e-X\	-czu-	.	2.r	.	.
8F#XJ 8E-X 8C/	.	.	.	.	.	.	.	.	.
8AA-/L	4AA-\	4r	.	4c\	-ciu	.	.	.	.
8F#J 8E- 8C/	.	.	.	.	.	.	.	.	.
8AA-/L	4AA-\	4r	.	4r	.	.	.	.	.
8F#J 8E- 8C/	.	.	.	.	.	.	.	.	.
!!LO:LB:g=original
=104	=104	=104	=104	=104	=104	=104	=104	=104	=104
!	!	!	!LO:DY:b:rj	!	!	!	!	!	!
(8EnL 8C/	2.GG\	(2.een\	p	(2.enX\	znaj-	.	2.r	.	.
8G/J	.	.	.	.	.	.	.	.	.
8EL 8C/	.	.	.	.	.	.	.	.	.
8G/J	.	.	.	.	.	.	.	.	.
8EL 8C/	.	.	.	.	.	.	.	.	.
8G/J	.	.	.	.	.	.	.	.	.
=105	=105	=105	=105	=105	=105	=105	=105	=105	=105
8EnL 8C/	2.GG\	2cc\	.	2c\)	.	.	2.r	.	.
8G/J	.	.	.	.	.	.	.	.	.
8EL 8C/	.	.	.	.	.	.	.	.	.
8G/J	.	.	.	.	.	.	.	.	.
8EL 8C/	.	4an/)	.	4AnX/	-dę	.	.	.	.
8G/J)	.	.	.	.	.	.	.	.	.
=106	=106	=106	=106	=106	=106	=106	=106	=106	=106
!	!	!	!	!	!	!LO:HP:a	!	!	!
(8DL 8C/	2.GG\	(>2.g/	.	2G/	przy-	<	2.r	.	.
8F/J	.	.	<	.	.	.	.	.	.
8DL 8C/	.	.	.	.	.	.	.	.	.
8F/J	.	.	.	.	.	.	.	.	.
8DL 8C/	.	.	.	4G/	-szłość	[[	.	.	.
8F/J	.	.	[[	.	.	.	.	.	.
=107	=107	=107	=107	=107	=107	=107	=107	=107	=107
8DL 8C/	2.GG\	2a-X/	.	(>2A-X/	bło-	.	2.r	.	.
8F/J	.	.	>	.	.	.	.	.	.
8DL 8BBn/	.	.	.	.	.	.	.	.	.
8F/J	.	.	.	.	.	.	.	.	.
8DL 8BB/	.	4g/)	]	4G/)	.	.	.	.	.
8F/J)	.	.	.	.	.	.	.	.	.
*v	*v	*	*	*	*	*	*	*	*
=108	=108	=108	=108	=108	=108	=108	=108	=108
!	!	!LO:DY:b:rj	!LO:TX:t=P:problem:c# jako cue note	!	!	!	!	!
8EL 8C\	8c/L	f	4c 4C/	-gą	.	2.r	.	.
16D\L	16d/L	.	.	.	.	.	.	.
16E\JJ	16e/JJ	.	.	.	.	.	.	.
16F\LL	16f/LL	.	4r	.	.	.	.	.
16E\	16e/	.	.	.	.	.	.	.
16F\	16f/	.	.	.	.	.	.	.
16G\JJ	16g/JJ	.	.	.	.	.	.	.
16A\LL	16a/LL	.	4r	.	.	.	.	.
16G\	16g/	.	.	.	.	.	.	.
16A\	16a/	.	.	.	.	.	.	.
16B\JJ	16b/JJ	.	.	.	.	.	.	.
=109	=109	=109	=109	=109	=109	=109	=109	=109
4c\	4cc\	.	2.r	.	.	2cc\	Ja	.
4r	4r	.	.	.	.	.	.	.
4r	4r	.	.	.	.	8.dd\	mam	.
.	.	.	.	.	.	16ee\	cię	.
!!LO:PB:g=original
=110	=110	=110	=110	=110	=110	=110	=110	=110
.	.	.	.	.	.	4qqdd/	ko-	.
8C\L	8e/L	.	2.r	.	.	2.cc\	-chać	.
16D\L	16f/L	.	.	.	.	.	.	.
16E\JJ	16g/JJ	.	.	.	.	.	.	.
16F\LL	16a/LL	.	.	.	.	.	.	.
16E\	16g/	.	.	.	.	.	.	.
16F\	16a/	.	.	.	.	.	.	.
16G\JJ	16b/JJ	.	.	.	.	.	.	.
16A\LL	16cc\LL	.	.	.	.	.	.	.
16G\	16b\	.	.	.	.	.	.	.
16A\	16cc\	.	.	.	.	.	.	.
16B\JJ	16dd\JJ	.	.	.	.	.	.	.
=111	=111	=111	=111	=111	=111	=111	=111	=111
4c\	4ee\	.	2.r	.	.	4.ee\	nie	.
4r	4r	.	.	.	.	.	.	.
.	.	.	.	.	.	8ee\	łudź	.
4r	4r	.	.	.	.	8.ff\	się	.
.	.	.	.	.	.	16gg\	da-	.
=112	=112	=112	=112	=112	=112	=112	=112	=112
4F 4FF/	4aa 4ff 4cc 4a\	sf	2.r	.	.	4aa\	-re-	.
2r	4r	.	.	.	.	4a/	-mnie	.
.	4r	.	.	.	.	4r	.	.
=113	=113	=113	=113	=113	=113	=113	=113	=113
2.r	2.r	.	2.r	.	.	(8.aa\L	Nie	.
.	.	.	.	.	.	16gg\Jk)	.	.
.	.	.	.	.	.	(8.ff\L	łudź	.
.	.	.	.	.	.	16ee\Jk)	.	.
.	.	.	.	.	.	8.dd\	się	.
.	.	.	.	.	.	16cc\	da-	.
=114	=114	=114	=114	=114	=114	=114	=114	=114
.	.	.	.	.	.	4qqcc/	-re-	.
4GG 4GGG/	4bb 4gg 4ff 4dd\	ff	2.r	.	.	2b\	-mnie	.
4r	4r	.	.	.	.	.	.	.
4r	4r	.	.	.	.	8.r	.	.
.	.	.	.	.	.	16dd\	da-	.
!!LO:LB:g=original
=115	=115	=115	=115	=115	=115	=115	=115	=115
*Xtuplet	*Xtuplet	*	*Xtuplet	*	*	*	*	*
!LO:TX:a:i:t=Cadenza	!	!	!	!	!	!	!	!
4%5r;	4%5r;	.	4%5r;	.	.	4gg;\	-re-	.
*	*	*	*	*	*	*Xtuplet	*	*
*	*	*	*	*	*	*cue	*	*
!	!	!	!	!	!	!LO:TUP:a:problem:klamra łukowa	!	!
.	.	.	.	.	.	12gg\L	.	.
.	.	.	.	.	.	12cc#X\	.	.
!	!	!	!	!	!	!LO:TX:a:i:t=Cadenza	!	!
.	.	.	.	.	.	12dd\J	.	.
!	!	!	!	!	!	!LO:TUP:a:problem:klamra łukowa	!	!
.	.	.	.	.	.	12ffn\L	.	.
.	.	.	.	.	.	12a#X\	.	.
.	.	.	.	.	.	12b\J	.	.
!	!	!	!	!	!	!LO:TUP:a:problem:klamra łukowa	!	!
.	.	.	.	.	.	12dd\L	.	.
.	.	.	.	.	.	12f#\	.	.
.	.	.	.	.	.	12g\J	.	.
.	.	.	.	.	.	8.a-X^>;</L	.	.
.	.	.	.	.	.	16g/Jk	.	.
*	*	*	*	*	*	*Xcue	*	*
=116	=116	=116	=116	=116	=116	=116	=116	=116
!	!LO:TX:a:B:t=Un poco più lento	!	!	!	!	!	!	!
!	!LO:TX:b:rj:t=Cor	!	!	!	!	!	!	!
!LO:TX:a:rj:t=Fag	!LO:TX:a:rj:t=Ob	!	!	!	!	!LO:TX:a:B:t=Un poco più lento	!	!
[2.c\	(2.ee 2.cc 2.g\	p	2.r	.	.	4c/	-mnie	.
.	.	.	.	.	.	4r	.	.
.	.	.	.	.	.	4r	.	.
=117	=117	=117	=117	=117	=117	=117	=117	=117
2.c\]	2.ee-X 2.cc 2.g\	.	2.r	.	.	2.r	.	.
=118	=118	=118	=118	=118	=118	=118	=118	=118
[<2.g> [<2.e-X> [<2.d-X> [>2.B-X\	4dd-X/)	.	2.r	.	.	2.r	.	.
.	8rgg	.	.	.	.	.	.	.
.	16ddd-X\LL	.	.	.	.	.	.	.
.	16ccc\JJ	.	.	.	.	.	.	.
.	8bb-X\L	.	.	.	.	.	.	.
.	(16bb-\L	.	.	.	.	.	.	.
!	!LO:SIC:v:s=16aa-\JJ	!	!	!	!	!	!	!
.	16aa\JJ	.	.	.	.	.	.	.
=119	=119	=119	=119	=119	=119	=119	=119	=119
2.g>_< 2.e->_< 2.d->_< 2.B-\_>	4gg/)	.	2.r	.	.	2.r	.	.
.	8rgg	.	.	.	.	.	.	.
.	16bb-X\LL	.	.	.	.	.	.	.
.	16aa-X\JJ	.	.	.	.	.	.	.
.	8gg\L	.	.	.	.	.	.	.
.	16gg\L	.	.	.	.	.	.	.
.	16ff\JJ	.	.	.	.	.	.	.
=120	=120	=120	=120	=120	=120	=120	=120	=120
2.g>] 2.e->] 2.d->] 2.B-\]	2.ff-X^>/	.	2.r	.	.	2.r	.	.
=121	=121	=121	=121	=121	=121	=121	=121	=121
2.g>: 2.e-X>: 2.d-X>: 2.B-X: 2.E-X;<::\	2.ee-X;::/	.	2.r;	.	.	2.r;	.	.
!!LO:LB:g=original
=122||	=122||	=122||	=122||	=122||	=122||	=122||	=122||	=122||
*k[b-e-a-d-]	*k[b-e-a-d-]	*	*k[b-e-a-d-]	*	*	*k[b-e-a-d-]	*	*
*M9/8	*M9/8	*	*M9/8	*	*	*M9/8	*	*
*^	*	*	*	*	*	*	*	*
!	!	!	!LO:DY:b:rj	!	!	!	!LO:TX:a:B:t=Andante con moto	!	!
[2.E-/	[2.AA-\	8c/L	p	8%9r	.	.	8%9r	.	.
.	.	8e-/	.	.	.	.	.	.	.
.	.	8a-/J	.	.	.	.	.	.	.
.	.	8c/L	.	.	.	.	.	.	.
.	.	8e-/	.	.	.	.	.	.	.
.	.	8a-/J	.	.	.	.	.	.	.
4.E-/]	4.AA-\]	8c/L	.	.	.	.	.	.	.
.	.	8e-/	.	.	.	.	.	.	.
.	.	8a-/J	.	.	.	.	.	.	.
=123	=123	=123	=123	=123	=123	=123	=123	=123	=123
2.E-/	2.AA-\	8c/L	.	8%9r	.	.	2.cc\	Two-	.
.	.	8e-/	.	.	.	.	.	.	.
!	!	!	!	!	!	!	!LO:TX:a:i:t=espressivo	!	!
.	.	8a-/J	.	.	.	.	.	.	.
.	.	8c/L	.	.	.	.	.	.	.
.	.	8e-/	.	.	.	.	.	.	.
.	.	8a-/J	.	.	.	.	.	.	.
4.F-X^/	4.AA-\	8B-/L	.	.	.	.	4cc\	-je	.
.	.	8d-/	.	.	.	.	.	.	.
.	.	8g/J	.	.	.	.	8b-\	wy-	.
=124	=124	=124	=124	=124	=124	=124	=124	=124	=124
.	.	.	.	.	.	.	4.qqb-/	-zna-	.
[2.E-/	[2.AA-\	8c/L	.	8%9r	.	.	2.a-/	-nie	.
.	.	8e-/	.	.	.	.	.	.	.
.	.	8a-/J	.	.	.	.	.	.	.
.	.	8c/L	.	.	.	.	.	.	.
.	.	8e-/	.	.	.	.	.	.	.
.	.	8a-/J	.	.	.	.	.	.	.
4.E-/]	4.AA-\]	8c/L	.	.	.	.	4r	.	.
.	.	8e-/	.	.	.	.	.	.	.
.	.	8a-/J	.	.	.	.	8r	.	.
*v	*v	*	*	*	*	*	*	*	*
=125	=125	=125	=125	=125	=125	=125	=125	=125
!	!	!	!	!	!	!	!	!LO:HP:a
(4.A- 4.AA-/	8c/L	<	8%9r	.	.	(2.ee-\	drę-	<
.	8e-/	.	.	.	.	.	.	.
.	8a-/J	.	.	.	.	.	.	.
4.G-X 4.GG-X/	8c/L	.	.	.	.	.	.	.
.	8e-/	[	.	.	.	.	.	.
.	8a-/J	>	.	.	.	.	.	.
4.F 4.FF/)	8c/L	.	.	.	.	8gg-X\)	.	[
!	!	!	!	!	!	!	!	!LO:HP:a
.	8e-/	.	.	.	.	8ff\	-czy	>
.	8an/J	]]	.	.	.	8cc\	mą	]]
!!LO:LB:g=original
=126	=126	=126	=126	=126	=126	=126	=126	=126
*^	*	*	*	*	*	*	*	*
!	!	!	!LO:DY:b:rj	!	!	!	!	!	!
[2.F/	[2.BB-\	8c/L	p	8%9r	.	.	4.ee-^\	du-	.
.	.	8e-/	.	.	.	.	.	.	.
.	.	8an/J	.	.	.	.	.	.	.
.	.	8d-/L	.	.	.	.	4dd-\	-szę	.
.	.	8f/	.	.	.	.	.	.	.
.	.	8b-/J	.	.	.	.	8r	.	.
4.F/]	4.BB-\]	8d-/L	.	.	.	.	4r	.	.
.	.	8f/	.	.	.	.	.	.	.
.	.	8b-/J	.	.	.	.	8r	.	.
=127	=127	=127	=127	=127	=127	=127	=127	=127	=127
2.F/	[2.BB-\	8d-/L	.	8%9r	.	.	2.dd-\	zo-	.
.	.	8f/	.	.	.	.	.	.	.
.	.	8b-/J	.	.	.	.	.	.	.
.	.	8d-/L	.	.	.	.	.	.	.
.	.	8f/	.	.	.	.	.	.	.
.	.	8b-/J	.	.	.	.	.	.	.
4.G-X^/	4.BB-\]	8c^>/L	.	.	.	.	(8cc\L	-staw	.
.	.	8e-/	.	.	.	.	8dd-\J)	.	.
.	.	8an/J	.	.	.	.	8cc\	spo-	.
=128	=128	=128	=128	=128	=128	=128	=128	=128	=128
.	.	.	.	.	.	.	4.qqcc/	-koj-	.
(2.F/	(2.BB-\	8d-/L	.	8%9r	.	.	2.b-\	-ność	.
.	.	8f/	.	.	.	.	.	.	.
.	.	8b-/J	.	.	.	.	.	.	.
.	.	8d-/L	.	.	.	.	.	.	.
.	.	8f/	.	.	.	.	.	.	.
.	.	8b-/J	.	.	.	.	.	.	.
4.F-X/)	4.AA-\)	8d-/L	.	.	.	.	8b-\	dla	.
.	.	8f-X/	.	.	.	.	8cc\	mnie	.
.	.	8b-/J	.	.	.	.	8dd-\	je-	.
=129	=129	=129	=129	=129	=129	=129	=129	=129	=129
[2.E-/	[2.GG\	8d-/L	.	8%9r	.	.	[4.ee-\	-dy-	.
.	.	8e-/	.	.	.	.	.	.	.
.	.	8b-/J	.	.	.	.	.	.	.
.	.	8d-/L	.	.	.	.	8ee-\L]	.	.
.	.	.	.	.	.	.	16qqff/LL	.	.
.	.	.	.	.	.	.	16qqee-/JJ	.	.
.	.	8e-/	.	.	.	.	8ddn\	.	.
.	.	8b-/J	.	.	.	.	8ee-\J	.	.
4.E-/]	4.GG\]	8d-/L	.	.	.	.	(8ff\L	-ną	.
.	.	8e-/	.	.	.	.	8ee-\J)	.	.
.	.	8b-/J	.	.	.	.	8dd-X\	je-	.
!!LO:PB:g=original
=130	=130	=130	=130	=130	=130	=130	=130	=130	=130
.	.	.	.	.	.	.	4.qqbn/	-dy-	.
4.F^/	[2.AA-\	8dnL 8Bn/	.	8%9r	.	.	2.cc\	-ną	.
.	.	8f/	.	.	.	.	.	.	.
.	.	8a-/J	.	.	.	.	.	.	.
[4.E-/	.	8c/L	.	.	.	.	.	.	.
.	.	8e-/	.	.	.	.	.	.	.
.	.	8a-/J	.	.	.	.	.	.	.
4.E-/]	4.AA-\]	8c/L	.	.	.	.	4r	.	.
.	.	8e-/	.	.	.	.	.	.	.
.	.	8a-/J	.	.	.	.	8r	.	.
=131	=131	=131	=131	=131	=131	=131	=131	=131	=131
[2.F [2.Dn/	[2.AA-\	8B-/L	.	8%9r	.	.	4cc\	jest-	.
.	.	8dn/	.	.	.	.	.	.	.
!	!	!	!	!	!	!	!	!	!LO:HP:a
.	.	8f/J	.	.	.	.	8b-\	-źe	<
.	.	8B-/L	.	.	.	.	8b-\	to	.
.	.	8d/	.	.	.	.	8b-\	ser-	.
.	.	8f/J	.	.	.	.	8cc\	-ca	.
4.F] 4.D/]	4.AA-\]	8B-/L	.	.	.	.	8ddn\	mo-	.
.	.	8d/	.	.	.	.	8ee-\	-je-	.
.	.	8f/J	.	.	.	.	8ff\	-go	[
=132	=132	=132	=132	=132	=132	=132	=132	=132	=132
!	!	!	!	!	!	!	!	!	!LO:HP:a
2.E- 2.BB-/	2.GG\	8B-/L	>	8%9r	.	.	4.gg\	wi-	>
.	.	8e-/	.	.	.	.	.	.	.
.	.	8g/J	.	.	.	.	.	.	.
.	.	8B-/L	.	.	.	.	4ee-\	-ną	.
.	.	8e-/	.	.	.	.	.	.	]
.	.	8g/J	]	.	.	.	8r	.	.
4.A- 4.E-/	4.AA-\	8c/L	.	.	.	.	8ee-\	że	.
.	.	8e-/	.	.	.	.	8ddn\	twą	.
.	.	8a-/J	.	.	.	.	8cc\	mi-	.
*v	*v	*	*	*	*	*	*	*	*
!!LO:LB:g=original
=133	=133	=133	=133	=133	=133	=133	=133	=133
2.G 2.E- 2.BB-\	8B-/L	.	8%9r	.	.	4cc\	-ło-	.
.	8e-/	.	.	.	.	.	.	.
.	8g/J	.	.	.	.	8b-\	-ścią	.
.	8B-/L	.	.	.	.	8b-^\	po-	.
.	8e-/	.	.	.	.	8cc^\	-gar-	.
.	8g/J	.	.	.	.	8b-^\	-dzać	.
4.A- 4.Dn 4.BB-\	8B-/L	.	.	.	.	(8a-/L	mu-	.
.	8dn/	.	.	.	.	8f/	.	.
.	8f/J	.	.	.	.	8b-/J)	.	.
=134	=134	=134	=134	=134	=134	=134	=134	=134
*^	*	*	*	*	*	*	*	*
!LO:TX:a:rj:t=Fag	!	!LO:TX:a:t=Clar	!	!	!	!	!	!	!
(<8G/L	2.E-\	(>8e-/L	<	8%9r	.	.	4e-/	-szę	.
8B-/	.	8g/	.	.	.	.	.	.	.
8An/J	.	8f#X/J	.	.	.	.	8r	.	.
8B-/L	.	8g/L	.	.	.	.	4r	.	.
8c/	.	8a-/	.	.	.	.	.	.	.
8d-/J	.	8b-/J	[	.	.	.	8r	.	.
8dn/L	4.E-\	8bn/L	>	.	.	.	4r	.	.
8e-/	.	8cc/	.	.	.	.	.	.	.
8d-X/J)	.	8b-X/J)	]]	.	.	.	8r	.	.
=135	=135	=135	=135	=135	=135	=135	=135	=135	=135
!	!	!	!LO:DY:b:rj	!	!	!	!	!	!
8cL 8A-\	4.ryy	4a-/	p	2.c\	Ah!	.	8%9r	.	.
8E-\	.	.	.	.	.	.	.	.	.
8A-\J	.	8r	.	.	.	.	.	.	.
(8C/L	2.AA-\	4r	.	.	.	.	.	.	.
8E-/	.	.	.	.	.	.	.	.	.
8A-/J	.	8r	.	.	.	.	.	.	.
8D-^</L	.	4r	.	4c\	to	.	.	.	.
8F-X/	.	.	.	.	.	.	.	.	.
8G/J)	.	8r	.	8B-\	wy-	.	.	.	.
!!LO:LB:g=original
=136	=136	=136	=136	=136	=136	=136	=136	=136	=136
!	!	!LO:TX:a:t=Flau	!	!	!	!	!	!	!
.	.	.	.	4.qqB-/	-zna-	.	.	.	.
8C/L	[2.AA-\	(8.a-\L	.	2.A-/	-nie	.	8%9r	.	.
8E-/	.	.	.	.	.	.	.	.	.
.	.	16b-\L	.	.	.	.	.	.	.
8A-/J	.	16cc\	.	.	.	.	.	.	.
.	.	16dd-\JJ	.	.	.	.	.	.	.
8C/L	.	8.ddn\L	.	.	.	.	.	.	.
8E-/	.	.	.	.	.	.	.	.	.
.	.	16ee-\L	.	.	.	.	.	.	.
8A-/J	.	16ff\	.	.	.	.	.	.	.
.	.	16gg\JJ	.	.	.	.	.	.	.
8C/L	4.AA-\]	8aa-\L	.	4r	.	.	.	.	.
.	.	16qqbb-/LL	.	.	.	.	.	.	.
.	.	16qqaa-/JJ	.	.	.	.	.	.	.
8E-/	.	16gg\L	.	.	.	.	.	.	.
.	.	16aa-\	.	.	.	.	.	.	.
8A-/J	.	16ccc\	.	8r	.	.	.	.	.
.	.	16bb-\JJ)	.	.	.	.	.	.	.
=137	=137	=137	=137	=137	=137	=137	=137	=137	=137
(8C/L	4.AA-\	4aa-\	.	(2.e-\	drę-	.	8%9r	.	.
8E-/	.	.	.	.	.	.	.	.	.
8A-/J	.	8r	<	.	.	.	.	.	.
8C/	4AA-\	4r	.	.	.	.	.	.	.
4E-/	.	.	.	.	.	.	.	.	.
.	8GG-X\	8r	[[	.	.	.	.	.	.
8AAn/L	4.FF\	4r	.>	8g-X\)	.	.	.	.	.
8C/	.	.	.	8f\	-czy	.	.	.	.
8E-/J)	.	8r	]	8c\	mą	.	.	.	.
=138	=138	=138	=138	=138	=138	=138	=138	=138	=138
.	.	.	.	4.qqe-/	du-	.	.	.	.
8D-/L	[2.BB-\	(8.fff\L	.	2.d-\	-szę	.	8%9r	.	.
8F/	.	.	.	.	.	.	.	.	.
.	.	16eeen\L	.	.	.	.	.	.	.
8B-/J	.	16fff\	.	.	.	.	.	.	.
.	.	16ccc\JJ	.	.	.	.	.	.	.
8D-/L	.	8.ddd-\L	.	.	.	.	.	.	.
8F/	.	.	.	.	.	.	.	.	.
.	.	16ccc\L	.	.	.	.	.	.	.
8B-/J	.	16ddd-\	.	.	.	.	.	.	.
.	.	16aan\JJ	.	.	.	.	.	.	.
8D-/L	4.BB-\]	16bb-\LL	.	4r	.	.	.	.	.
.	.	16een\	.	.	.	.	.	.	.
8F/	.	16ff\	.	.	.	.	.	.	.
.	.	16cc\	.	.	.	.	.	.	.
8B-/J	.	16dd-\	.	8r	.	.	.	.	.
.	.	16an\JJ)	.	.	.	.	.	.	.
!!LO:LB:g=original
=139	=139	=139	=139	=139	=139	=139	=139	=139	=139
8D-/L	[2.BB-\	4b-\	.	2.d-\	W ro-	.	8%9r	.	.
8F/	.	.	.	.	.	.	.	.	.
8B-/J	.	8r	.	.	.	.	.	.	.
8D-/L	.	4r	.	.	.	.	.	.	.
8F/	.	.	.	.	.	.	.	.	.
8B-/J	.	8r	.	.	.	.	.	.	.
8E-^/L	4.BB-\]	4r	.	4d-\	-zpacz	.	.	.	.
8G-X/	.	.	.	.	.	.	.	.	.
8An/J	.	8r	.	8c\	na-	.	.	.	.
=140	=140	=140	=140	=140	=140	=140	=140	=140	=140
.	.	.	.	4.qqc/	-dzie-	.	.	.	.
8D-/L	2.BB-\	(8.ff\L	.	2.B-\	-ję	.	8%9r	.	.
8F/	.	.	.	.	.	.	.	.	.
.	.	16gg-X\L	<	.	.	.	.	.	.
8B-/J	.	16ff\	.	.	.	.	.	.	.
.	.	16een\JJ	.	.	.	.	.	.	.
8D-/L	.	8.ff\L)	.	.	.	.	.	.	.
8F/	.	.	.	.	.	.	.	.	.
.	.	(16gg-\L	.	.	.	.	.	.	.
8B-/J	.	16aa-\	.	.	.	.	.	.	.
.	.	16aan\JJ)	.	.	.	.	.	.	.
8D-/L	4.AA-\	4.bb-TT\	[	8B-\	w roz-	.	.	.	.
8F-X/	.	.	.	8c\	-pacz	.	.	.	.
8B-/J	.	.	.	8d-\	na-	.	.	.	.
.	.	16qqaan/LL	.	.	.	.	.	.	.
.	.	16qqbb-/JJ	.	.	.	.	.	.	.
=141	=141	=141	=141	=141	=141	=141	=141	=141	=141
8D-/L	[2.GG\	(4.ddd-\	>	[4.e-\	-dzie-	.	8%9r	.	.
8E-/	.	.	.	.	.	.	.	.	.
8B-/J	.	.	.	.	.	.	.	.	.
8D-/L	.	4ee-\)	]	8e-\L]	.	.	.	.	.
.	.	.	.	16qqf/LL	.	.	.	.	.
.	.	.	.	16qqe-/JJ	.	.	.	.	.
8E-/	.	.	.	8d\J	.	.	.	.	.
8B-/J	.	8r	.	8e-\	-ję	.	.	.	.
8D-/L	4.GG\]	4r	.	8f\	zmie-	.	.	.	.
8E-/	.	.	.	8e-\	-nia	.	.	.	.
8B-/J	.	8r	.	8d-X\	je-	.	.	.	.
!!LO:PB:g=original
=142	=142	=142	=142	=142	=142	=142	=142	=142	=142
.	.	.	.	4.qqB/	-dy-	.	.	.	.
8C/L	[2.AA-\	(8.aa-\L	.	2.c\	-ną	.	8%9r	.	.
8E-/	.	.	.	.	.	.	.	.	.
.	.	16gg\L	.	.	.	.	.	.	.
8A-/J	.	16aa-\	.	.	.	.	.	.	.
.	.	16ddn\JJ	.	.	.	.	.	.	.
8C/L	.	8.ee-\L	.	.	.	.	.	.	.
8E-/	.	.	.	.	.	.	.	.	.
.	.	16bn\L	.	.	.	.	.	.	.
8A-/J	.	16cc\	.	.	.	.	.	.	.
.	.	16g\JJ	.	.	.	.	.	.	.
8C/L	4.AA-\]	16a-/LL	.	4r	.	.	.	.	.
.	.	16dn/	.	.	.	.	.	.	.
8E-/	.	16e-/	.	.	.	.	.	.	.
.	.	16a-/	.	.	.	.	.	.	.
8A-/J	.	16cc/	.	8r	.	.	.	.	.
.	.	16a-/JJ	.	.	.	.	.	.	.
=143	=143	=143	=143	=143	=143	=143	=143	=143	=143
4.D-/	8D-\L	4f/)	.	4c\	jest-	.	8%9r	.	.
.	8F\	.	.	.	.	.	.	.	.
.	8B-\J	8r	.	8B-\	-że	.	.	.	.
4.D-/	8D-\L	4r	.	8B-\	to	.	.	.	.
.	8F\	.	.	8B-\	ser-	.	.	.	.
.	8B-\J	8r	.	8c\	-ca	.	.	.	.
4.D-/	8D-\L	4r	.	8d-\	mo-	.	.	.	.
.	8F\	.	.	8e-\	-je-	.	.	.	.
.	8B-\J	8r	.	8f\	-go	.	.	.	.
=144	=144	=144	=144	=144	=144	=144	=144	=144	=144
4.E-/	8E-\L	8%9r	.	4.f\	wi-	.	8%9r	.	.
.	8A-\	.	.	.	.	.	.	.	.
.	8c\J	.	.	.	.	.	.	.	.
4.E-/	8E-\L	.	.	4e-\	-ną	.	.	.	.
.	8A-\	.	.	.	.	.	.	.	.
.	8c\J	.	.	8r	.	.	.	.	.
4.E-/	8E-\L	.	.	8e-\	że	.	.	.	.
.	8A-\	.	.	8c\	cię	.	.	.	.
.	8c\J	.	.	8A-/	nie	.	.	.	.
!!LO:LB:g=original
=145	=145	=145	=145	=145	=145	=145	=145	=145	=145
8EE-/L	4.EE-\	16e-'/LL	.	(4.D-/	wdzię-	.	8%9r	.	.
.	.	16f'/	<	.	.	.	.	.	.
8AA-/	.	16g'/	.	.	.	.	.	.	.
.	.	16a-'/	.	.	.	.	.	.	.
8C/J	.	16b-'/	.	.	.	.	.	.	.
.	.	16cc'/JJ	.	.	.	.	.	.	.
8EE-/L	4.EE-\	16dd-X'\LL	.	8E-/)	.	.	.	.	.
.	.	16ddn'\	.	.	.	.	.	.	.
.	.	.	.	16qqF/LL	.	.	.	.	.
.	.	.	.	16qqE-/JJ	.	.	.	.	.
8AA-/	.	16ee-'\	.	8D/	-czną	.	.	.	.
.	.	16ff'\	.	.	.	.	.	.	.
8C/J	.	16gg'\	.	8E-/	u-	.	.	.	.
.	.	16aa-'\JJ	.	.	.	.	.	.	.
8EE-/L	4.EE-\	16bb-'\LL	.	4c^\	-wiel-	.	.	.	.
.	.	16ccc'\	.	.	.	.	.	.	.
8GG/	.	16ddd-'\	.	.	.	.	.	.	.
.	.	16eee-'\	.	.	.	.	.	.	.
8D-/J	.	16fff'\	.	8B-\	-biać	.	.	.	.
.	.	16ggg'\JJ	[	.	.	.	.	.	.
*v	*v	*	*	*	*	*	*	*	*
=146	=146	=146	=146	=146	=146	=146	=146	=146
!	!LO:TX:t=P:problem:mixed beam	!	!	!	!	!	!	!
.	.	.	4.qqB-/	mu-	.	.	.	.
8CL 8AA-/	8aaa-\L	p	2.A-/	-szę	.	8%9r	.	.
8E- 8AA-/	8a- 8c/	.	.	.	.	.	.	.
8E-J 8AA-/	8a-J 8c/	.	.	.	.	.	.	.
*tremolo	*tremolo	*	*	*	*	*	*	*
8E-L 8AA-/	8a-L 8c/	.	.	.	.	.	.	.
8E- 8AA-/	8a- 8c/	.	.	.	.	.	.	.
8E-J 8AA-/	8a-J 8c/	.	.	.	.	.	.	.
8E-L 8AA-/	8a-L 8c/	.	4r	.	.	.	.	.
8E- 8AA-/	8a- 8c/	.	.	.	.	.	.	.
8E-J 8AA-/	8a-J 8c/	.	8r	.	.	.	.	.
=147	=147	=147	=147	=147	=147	=147	=147	=147
!	!	!	!	!	!LO:HP:a	!	!	!
8FL 8AA-/	8a-L 8d-/	<	2.d-\	Jest-	<	2.ff\	Jest-	.
8F 8AA-/	8a- 8d-/	.	.	.	.	.	.	.
8FJ 8AA-/	8a-J 8d-/	.	.	.	.	.	.	.
8FL 8AA-/	8a-L 8d-/	.	.	.	.	.	.	.
8F 8AA-/	8a- 8d-/	[	.	.	.	.	.	.
8FJ 8AA-/	8a-J 8d-/	>	.	.	[	.	.	.
!	!	!	!	!	!LO:HP:a	!	!	!
8GL 8AA-\	8b-L 8d-/	.	4d-\	-że	>	4ff-X\	-że	.
8G 8AA-\	8b- 8d-/	.	.	.	.	.	.	.
8GJ 8AA-\	8b-J 8d-/	]	8d-\	to	]]	8ff-\	to	.
=148	=148	=148	=148	=148	=148	=148	=148	=148
8A-L 8E- 8AA-\	8a-L 8c/	.	4.c\	ser-	.	(4ee-\	ser-	.
8A- 8E- 8AA-\	8a- 8c/	.	.	.	.	.	.	.
8A-J 8E- 8AA-\	8a-J 8c/	.	.	.	.	8cc\)	.	.
8A-L 8E- 8AA-\	8a-L 8c/	.	4c\	-ca	.	4a-/	-ca	.
8A- 8E- 8AA-\	8a- 8c/	.	.	.	.	.	.	.
8A-J 8E- 8AA-\	8a-J 8c/	.	8r	.	.	8r	.	.
8A-L 8E- 8AA-\	8a-L 8c/	.	4r	.	.	4r	.	.
8A- 8E- 8AA-\	8a- 8c/	.	.	.	.	.	.	.
8A-J 8E- 8AA-\	8a-J 8c/	.	8c\	mo	.	8ee-\	mo	.
!!LO:LB:g=original
=149	=149	=149	=149	=149	=149	=149	=149	=149
8FL 8AA-/	8a-L 8d-/	<	2.d-\	je-	<	2.ff\	je-	.
8F 8AA-/	8a- 8d-/	.	.	.	.	.	.	.
8FJ 8AA-/	8a-J 8d-/	.	.	.	.	.	.	.
8FL 8AA-/	8a-L 8d-/	.	.	.	.	.	.	.
8F 8AA-/	8a- 8d-/	.	.	.	[	.	.	.
8FJ 8AA-/	8a-J 8d-/	.	.	.	>	.	.	.
8GL 8AA-\	8b-L 8d-/	.	4.d-\	-go	.	4.ff-X\	-go	.
8G 8AA-\	8b- 8d-/	.	.	.	.	.	.	.
8GJ 8AA-\	8b-J 8d-/	[[	.	.	]	.	.	.
=150	=150	=150	=150	=150	=150	=150	=150	=150
8E-L 8AA-/	8a-L 8c/	.	4.c\	wi-	.	(4ee-\	wi-	.
8E- 8AA-/	8a- 8c/	.	.	.	.	.	.	.
8E-J 8AA-/	8a-J 8c/	.	.	.	.	8cc\)	.	.
*Xtremolo	*Xtremolo	*	*	*	*	*	*	*
(8E-L 8AA-/	4a- 4c/	.	4c\	-ną	.	4a-/	-ną	.
8C/	.	.	.	.	.	.	.	.
8E-/J	8r	.	8r	.	.	8r	.	.
8A-\L	4r	.	4r	.	.	4r	.	.
8c\	.	.	.	.	.	.	.	.
8e-\J)	8r	.	8r	.	.	8r	.	.
=151	=151	=151	=151	=151	=151	=151	=151	=151
8A-\L	8ee-L 8cc 8a-\	.	4.c\	ze	<	4.ee-\	ze	.
8c 8A-\	8ee- 8cc\	<	.	.	.	.	.	.
8cJ 8A-\	8ee-J 8cc\	.	.	.	.	.	.	.
*tremolo	*tremolo	*	*	*	*	*	*	*
8cL 8A-\	8ee-L 8cc\	.	4c\	cię	.	4ee-\	twą	.
8c 8A-\	8ee- 8cc\	.	.	.	.	.	.	.
8cJ 8A-\	8ee-J 8cc\	.	8c\	nie-	.	8ee-\	mi-	.
8cL 8G\	8eenL 8b-\	[	4.B-\	-wdzię-	[[	4.een\	-ło-	.
8c 8G\	8ee 8b-\	.	.	.	.	.	.	.
8cJ 8G\	8eeJ 8b-\	.	.	.	.	.	.	.
*Xtremolo	*Xtremolo	*	*	*	*	*	*	*
=152	=152	=152	=152	=152	=152	=152	=152	=152
!	!	!	!	!	!LO:DY:a:rj	!	!	!
4c 4F\	4ff 4a-\	.	8A-/	-czną	f	8ff\	-ścią	.
.	.	.	8r	.	.	8r	.	.
8r	8r	.	8d-\	u-	.	8ff\	po-	.
!	!	!LO:DY:b:rj	!	!	!LO:DY:a:rj	!	!	!
[4.D- [4.DD-/	[4.aa- [4.ff [>4.dd- [4.a-\	fz >	([4.f\	-wiel-	fz	([4.aa-\	-gar-	.
8D-] 8DD-/]	8aa-] 8ff] 8dd-] 8a-\]	]	8f\L]	.	.	8aa-\L]	.	.
8r	8r	.	8a-\J)	.	.	8ff\J)	.	.
8r	8r	.	8f\	-biać	.	8dd-\	-dzać	.
!!LO:LB:g=original
=153	=153	=153	=153	=153	=153	=153	=153	=153
8EE-/L	[4.ccc [4.ee- [4.cc\	<	[4.e-\	u-	.	[4.cc\	po-	.
8AA-/	.	.	.	.	.	.	.	.
8C/J	.	[	.	.	.	.	.	.
2.E-\	(8ccc]L 8ee-] 8cc\]	>	8e-\]	.	.	8cc\]	.	.
.	8ddd- 8ff 8dd-^<\	.	8f^\	-wiel-	.	8dd-^\	-gar-	.
.	8cccJ 8ee- 8cc^<\)	]	8e-^\	-biać	.	8cc^\	-dzać	.
.	(8bb-L 8dd- 8b-^<\	.	(8d-^\L	mu-	.	(8b-^\L	mu-	.
.	8ccc 8ee- 8cc\	.	8e-\	.	.	8cc\	.	.
.	8bb-J 8dd- 8b-\)	.	8d-\J)	.	.	8b-\J)	.	.
=154	=154	=154	=154	=154	=154	=154	=154	=154
8AA-/L	8aa- 8ee- 8cc 8a-\	p	4c\	-szę	.	4a-/	-szę	.
8E- 8AA-/	8a-L 8c/	.	.	.	.	.	.	.
8E-J 8AA-/	8a-J 8c/	.	8r	.	.	8r	.	.
*tremolo	*tremolo	*	*	*	*	*	*	*
8E-L 8AA-/	8a-L 8c/	.	4r	.	.	4r	.	.
8E- 8AA-/	8a- 8c/	.	.	.	.	.	.	.
8E-J 8AA-/	8a-J 8c/	.	8r	.	.	8r	.	.
8E-L 8AA-/	8a-L 8c/	.	4r	.	.	4r	.	.
8E- 8AA-/	8a- 8c/	.	.	.	.	.	.	.
8E-J 8AA-/	8a-J 8c/	.	8r	.	.	8r	.	.
=155	=155	=155	=155	=155	=155	=155	=155	=155
8FL 8AA-/	8a-L 8d-/	<	2.f\	jest-	.	2.dd-\	jest-	.
8F 8AA-/	8a- 8d-/	.	.	.	.	.	.	.
8FJ 8AA-/	8a-J 8d-/	.	.	.	.	.	.	.
8FL 8AA-/	8a-L 8d-/	.	.	.	.	.	.	.
8F 8AA-/	8a- 8d-/	.	.	.	.	.	.	.
8FJ 8AA-/	8a-J 8d-/	[	.	.	.	.	.	.
8GL 8AA-\	8b-L 8d-/	>	4f-X\	-że	.	4dd-\	-że	.
8G 8AA-\	8b- 8d-/	.	.	.	.	.	.	.
8GJ 8AA-\	8b-J 8d-/	]]	8f-\	to	.	8dd-\	to	.
*Xtremolo	*Xtremolo	*	*	*	*	*	*	*
=156	=156	=156	=156	=156	=156	=156	=156	=156
8A-L 8E- 8AA-\	16a-LL 16c/	.	(4e-\	ser-	.	4.cc\	ser-	.
.	16g'/	.	.	.	.	.	.	.
8A- 8E- 8C 8AA-\	16a-'/	.	.	.	.	.	.	.
.	16b-'/	.	.	.	.	.	.	.
8A-J 8E- 8C 8AA-\	16cc'/	.	8c\)	.	.	.	.	.
.	16dd-'/JJ	.	.	.	.	.	.	.
8A-L 8E- 8C 8AA-\	16ddn'\LL	.	4A-/	-ca	.	4cc\	-ca	.
.	16ee-'\	.	.	.	.	.	.	.
8A- 8E- 8C 8AA-\	16ff'\	.	.	.	.	.	.	.
.	16gg'\	.	.	.	.	.	.	.
8A-J 8E- 8C 8AA-\	16aa-'\	.	8r	.	.	8r	.	.
.	16bb-'\JJ	.	.	.	.	.	.	.
8A-L 8E- 8C 8AA-\	16ccc'\LL	.	4r	.	.	4r	.	.
.	(16gg\	.	.	.	.	.	.	.
8A- 8E- 8C 8AA-\	16aa-\	.	.	.	.	.	.	.
.	16ee-\	.	.	.	.	.	.	.
8A-J 8E- 8C 8AA-\	16cc\	.	8e-\	mo-	.	8cc\	mo-	.
.	16a-\JJ)	.	.	.	.	.	.	.
!!LO:PB:g=original
=157	=157	=157	=157	=157	=157	=157	=157	=157
*tremolo	*tremolo	*	*	*	*	*	*	*
8FL 8AA-/	8a-L 8d-/	<	2.f\	-je-	.	2.dd-\	-je-	.
8F 8AA-/	8a- 8d-/	.	.	.	.	.	.	.
8FJ 8AA-/	8a-J 8d-/	.	.	.	.	.	.	.
8FL 8AA-/	8a-L 8d-/	.	.	.	.	.	.	.
8F 8AA-/	8a- 8d-/	[	.	.	.	.	.	.
8FJ 8AA-/	8a-J 8d-/	>	.	.	.	.	.	.
8GL 8AA-\	8b-L 8d-/	.	4.f-X\	-go	.	4.dd-\	-go	.
8G 8AA-\	8b- 8d-/	.	.	.	.	.	.	.
8GJ 8AA-\	8b-J 8d-/	]]	.	.	.	.	.	.
*Xtremolo	*Xtremolo	*	*	*	*	*	*	*
=158	=158	=158	=158	=158	=158	=158	=158	=158
(16A-LL 16AA-/	8a-L 8c/	.	(4e-\	wi-	.	4.cc\	wi-	.
16GG/)	.	.	.	.	.	.	.	.
16AA-'/	8a- 8c/	.	.	.	.	.	.	.
16BB-'/	.	.	.	.	.	.	.	.
16C'/	8a-J 8c/	.	8c\)	.	.	.	.	.
16D-'/JJ	.	.	.	.	.	.	.	.
(16Dn\LL	4a- 4c/	.	4A-/	-ną	.	4cc\	-ną	.
16E-\)	.	.	.	.	.	.	.	.
16F'\	.	.	.	.	.	.	.	.
16G'\	.	.	.	.	.	.	.	.
16A-'\	8r	.	8r	.	.	8r	.	.
16B-'\JJ	.	.	.	.	.	.	.	.
16c'\LL	4r	.	4r	.	.	4r	.	.
(16G\	.	.	.	.	.	.	.	.
16A-\)	.	.	.	.	.	.	.	.
(16D\	.	.	.	.	.	.	.	.
16E-\	8r	.	8r	.	.	8r	.	.
16C\JJ)	.	.	.	.	.	.	.	.
=159	=159	=159	=159	=159	=159	=159	=159	=159
8AA-\L	8ee-L 8cc\	<	4.e-\	że	.	4.cc\	że	.
8c 8A-\	8ee- 8cc\	.	.	.	<	.	.	.
8cJ 8A-\	8ee-J 8cc\	.	.	.	.	.	.	.
*tremolo	*tremolo	*	*	*	*	*	*	*
8cL 8A-\	8ee-L 8cc\	.	4e-\	cię	.	4cc\	twa	.
8c 8A-\	8ee- 8cc\	[	.	.	.	.	.	.
8cJ 8A-\	8ee-J 8cc\	.	8e-\	nie-	[[	8cc\	mi-	.
8cL 8G\	8eenL 8b-\	.	4.e\	-wdzię-	.	4.b-\	-ło-	.
8c 8G\	8ee 8b-\	.	.	.	.	.	.	.
8cJ 8G\	8eeJ 8b-\	.	.	.	.	.	.	.
*Xtremolo	*Xtremolo	*	*	*	*	*	*	*
=160	=160	=160	=160	=160	=160	=160	=160	=160
!	!	!	!	!	!LO:DY:a:rj	!	!	!
4c 4F\	4ff 4a-\	.	8f\	-czną	f	8a-/	-ścią	.
.	.	.	8r	.	.	8r	.	.
8r	8r	.	8f\	u-	.	8dd-\	po-	.
!	!	!LO:DY:b:rj	!	!	!LO:DY:a:rj	!	!	!LO:DY:a:rj
[4.D- [4.DD-/	[4.aa- [4.ff [>4.dd- [4.a-\	fz >	([4.a-\	-wiel-	fz	([4.ff\	-gar-	fz
8D-] 8DD-/]	8aa-] 8ff] 8dd-] 8a-\]	]	8a-\L]	.	.	8ff\L]	.	.
8r	8r	.	8f\J)	.	.	8dd-\J)	.	.
8r	8r	.	8d-\	-biać	.	8f/	-dzać	.
!!LO:LB:g=original
=161	=161	=161	=161	=161	=161	=161	=161	=161
8EE-/L	[4.ccc [4.ee- [4.cc\	<	[4.c\	u-	.	[4.e-/	po-	.
8AA-/	.	.	.	.	.	.	.	.
8C/J	.	[	.	.	.	.	.	.
4.E-\	(8ccc]L 8ee-] 8cc\]	>	8c\]	.	.	8e-/]	.	.
.	8ddd- 8ff 8dd-\	]]	8d-\	-wiel-	.	8f/	-gar-	.
.	8cccJ 8ee- 8cc\)	.	8c\	-biać	.	8e-/	-dzać	.
4.EE-/	(8bb-L 8dd- 8b-\	.	(8B-\L	mu-	.	4.gt/	mu-	.
.	8ccc 8ee- 8cc\	.	8c\	.	.	.	.	.
.	8bb-J 8dd- 8b-\)	.	8B-\J)	.	.	.	.	.
.	.	.	.	.	.	16qqf/LL	.	.
.	.	.	.	.	.	16qqg/JJ	.	.
=162	=162	=162	=162	=162	=162	=162	=162	=162
4AA-/	4aa- 4cc 4a-\	.	4c\	-szę	.	4a-/	-szę	.
8r	8r	.	8r	.	.	8r	.	.
4r	4r	.	4r	.	.	8ee-\	jest-	.
.	.	.	.	.	.	8bn\	-że	.
8r	8r	.	8r	.	.	8cc\	to	.
4r	4r	.	4r	.	.	(16g/LL	ser-	.
!	!	!	!	!	!	!LO:SIC:v:s=16b-/JJ)	!	!
.	.	.	.	.	.	16b/JJ)	.	.
.	.	.	.	.	.	8a-/	-ca	.
8r	8r	.	8r	.	.	8f-X/	mo-	.
=163	=163	=163	=163	=163	=163	=163	=163	=163
2.c 2.A- 2.E-\	16e-'\LL	.	8%9r	.	.	[4.e-/	-je-	.
.	16a-'\	.	.	.	.	.	.	.
.	16cc'\	.	.	.	.	.	.	.
.	16ee-'\	.	.	.	.	.	.	.
.	16aa-'\	.	.	.	.	.	.	.
.	16ccc'\JJ	.	.	.	.	.	.	.
.	4.eee-\	.	.	.	.	8e-/L]	.	.
.	.	.	.	.	.	16qqf/LL	.	.
.	.	.	.	.	.	16qqe-/JJ	.	.
.	.	.	.	.	.	8dn/J	.	.
.	.	.	.	.	.	8e-/	-go	.
4.d- 4.B- 4.E-\	4.gg^<t\	.	.	.	.	(4cc\	wi-	.
.	.	.	.	.	.	8b-\)	.	.
.	(16qqff/LL	.	.	.	.	.	.	.
.	16qqgg/JJ)	.	.	.	.	.	.	.
!!LO:LB:g=original
=164	=164	=164	=164	=164	=164	=164	=164	=164
4c 4A-\	4aa-\	.	4r	.	.	4a-/	-ną	.
8r	8r	.	8r	.	.	8r	.	.
4r	4r	.	8e-\	jest-	.	4r	.	.
.	.	.	8B\	-że	.	.	.	.
8r	8r	.	8c\	to	.	8r	.	.
4r	4r	.	(16G/LL	ser-	.	4r	.	.
!	!	!	!LO:SIC:v:s=16B-/JJ)	!	!	!	!	!
.	.	.	16B/JJ)	.	.	.	.	.
.	.	.	8A-/	-ca	.	.	.	.
8r	8r	.	8F-X/	mo-	.	8r	.	.
=165	=165	=165	=165	=165	=165	=165	=165	=165
16e-'\LL	2.cc 2.a- [2.e-/	.	[4.E-/	-je-	.	8%9r	.	.
16c'\	.	.	.	.	.	.	.	.
16A-'\	.	.	.	.	.	.	.	.
16E-'\	.	.	.	.	.	.	.	.
16C'\	.	.	.	.	.	.	.	.
16AA-'\JJ	.	.	.	.	.	.	.	.
(2.EE-/	.	.	8E-/L]	.	.	.	.	.
.	.	.	16qqF/LL	.	.	.	.	.
.	.	.	16qqE-/JJ	.	.	.	.	.
.	.	.	8D/J	.	.	.	.	.
.	.	.	8E-/	-go	.	.	.	.
.	4.dd- 4.g 4.e-/]	.	(4c\	wi-	.	.	.	.
.	.	.	8B-\)	.	.	.	.	.
=166	=166	=166	=166	=166	=166	=166	=166	=166
4AA-/)	4cc 4a- 4e-/	.	4A-/	-ną	.	4r	.	.
8r	8r	.	8r	.	.	8r	.	.
8r	4r	.	8r	.	.	8r	.	.
!	!	!	!	!	!	!	!	!LO:HP:a
(8B-L 8G^<\	.	.	8G^>/	że	<	8b-^\	że	<
8cJ 8A-^<\	8r	.	8A-^>/	cię	.	8cc^\	twą	.
8d-L 8B-^<\	4r	.	8B-^>\	nie-	.	8dd-^\	mi-	.
8e- 8c^<\	.	.	8c^>\	-wdzięcz-	.	8ee-^\	-ło-	.
8fJ 8d-\)	8r	.	16d-^>\	-ną	[	16ff^\	-ścią	[
.	.	.	16d-\	u-	.	16ff\	po-	.
!!LO:LB:g=original
=167	=167	=167	=167	=167	=167	=167	=167	=167
!	!	!LO:HP:b=2	!	!	!LO:HP:a	!	!	!LO:HP:a
!	!	!LO:DY:rj:b=2	!	!	!LO:DY:a:rj	!	!	!LO:DY:a:rj
(4.c (4.An\	4r	f >	4.e-\	-wiel-	f >	4.gg\	-gar-	f >
.	8r	]	.	.	.	.	.	.
!	!LO:TX:a:rj:t=Flau	!	!	!	!	!	!	!
4d- 4B-\))	(16fff\LL	.	4d-\	-biać	]	4ff\	-dzać	]
.	16ccc\	.	.	.	.	.	.	.
.	16ddd-\	.	.	.	.	.	.	.
.	16bb-\	.	.	.	.	.	.	.
8r	16ff\	.	8r	.	.	8r	.	.
.	16dd-\JJ	.	.	.	.	.	.	.
4r	4b-\)	.	4r	.	.	4r	.	.
8r	8ryy	.	8r	.	.	8r	.	.
=168	=168	=168	=168	=168	=168	=168	=168	=168
*^	*^	*	*	*	*	*	*	*
(4.B- (4.G\	2.ryy	4r	2.ryy	.	4.d-^\	mu-	.	4.ff-X^\	mu-	.
.	.	8r	.	.	.	.	.	.	.	.
!	!	!LO:TX:a:t=Clar.	!	!	!	!	!	!	!	!
4c 4A-\))	.	(16A-/LL	.	.	4c\	-szę	.	4ee-\	-szę	.
.	.	16c/	.	.	.	.	.	.	.	.
.	.	16e-/	.	.	.	.	.	.	.	.
.	.	16a-/J	.	.	.	.	.	.	.	.
8r	.	8cc/J)	.	.	8r	.	.	8r	.	.
8An/L	4.D-\	8ee-/L	8g-X\	>	8A/	u-	<	8ee-\	po-	.
8B-/	.	8dd-/	4f\	.	8B-\	-wiel-	.	8dd-\	-gar-	.
8d-/J	.	8b-/J	.	]	8d-\	-biać	[[	8b-\	-dzać	.
=169	=169	=169	=169	=169	=169	=169	=169	=169	=169	=169
8c/	8E-\L	(4.a-/	4.e-\	.	(2.c$ss\	mu-	.	(2.a-$sS/	mu-	.
4ryy	8c\	.	.	.	.	.	.	.	.	.
.	8A-\J	.	.	.	.	.	.	.	.	.
2.ryy	8E-\L	4.a- 4.e- 4.c/	2.ryy	.	.	.	.	.	.	.
.	8C\	.	.	.	.	.	.	.	.	.
.	8AA-\J	.	.	.	.	.	.	.	.	.
.	(4.EE-/	(4.g [>4.e- (4.d-/)	.	.	4e-\	.	.	4cc\	.	.
.	.	.	.	.	8d-\)	.	.	8b-\)	.	.
*v	*v	*	*	*	*	*	*	*	*	*
*	*v	*v	*	*	*	*	*	*	*
=170	=170	=170	=170	=170	=170	=170	=170	=170
8AA-\L)	(8a-L 8e-] 8c\))	.	4c\	-szę	.	4a-/	-szę	.
!	!LO:TX:a:rj:t=Ob	!	!	!	!	!	!	!
8A- 8E- 8C 8AA-\	8ccc\	.	.	.	.	.	.	.
8A-J 8E- 8C 8AA-\	8gg\J	<	8r	.	.	8r	.	.
8A-L 8E- 8C 8AA-\	8aa-\L	.	4r	.	.	4r	.	.
8A- 8E- 8C 8AA-\	8ddn\	.	.	.	.	.	.	.
8A-J 8E- 8C 8AA-\	8ff\J	.	8r	.	.	8r	.	.
8A-L 8E- 8C 8AA-\	8ee-\L	.	4r	.	.	4r	.	.
8A- 8E- 8C 8AA-\	8cc\	[	.	.	.	.	.	.
8A-J 8E- 8C 8AA-\	8a-\J)	.	8e-\	u-	.	8cc\	po-	.
!!LO:PB:g=original
=171	=171	=171	=171	=171	=171	=171	=171	=171
*tremolo	*	*	*	*	*	*	*	*
!	!LO:TX:a:rj:t=Clar	!	!	!	!LO:DY:a:rj	!	!	!
8GL 8F-X 8D- 8AA-\	(>8g\L	f	[2.f-X\	-wiel-	f>	[2.dd-\	-gar-	.
8G 8F- 8D- 8AA-\	8dd-\	>	.	.	.	.	.	.
8GJ 8F- 8D- 8AA-\	8b-\J	.	.	.	.	.	.	.
8GL 8F- 8D- 8AA-\	8g/L	.	.	.	.	.	.	.
8G 8F- 8D- 8AA-\	8f-X/	.	.	.	.	.	.	.
8GJ 8F- 8D- 8AA-\	8d-/J	.	.	.	.	.	.	.
8F-L 8D- 8AA-\	8B-</L	.	4.f-\]	.	]	4.dd-\]	.	.
8F- 8D- 8AA-\	8G</	.	.	.	.	.	.	.
8F-J 8D- 8AA-\	8B-</J)	]	.	.	.	.	.	.
*Xtremolo	*	*	*	*	*	*	*	*
=172	=172	=172	=172	=172	=172	=172	=172	=172
!	!LO:TX:a:t=Ob	!	!	!	!	!	!	!
!	!LO:TX:t=P:problem:mixed beam	!	!	!	!	!	!	!
8A-L 8E- 8C 8AA-\	8A-</L	p<	4e-\	-biać	.	4cc\	-dzać	.
8A- 8E- 8C 8AA-\	(8ccc\	.	.	.	.	.	.	.
8A-J 8E- 8C 8AA-\	8gg\J	.	8r	.	.	8r	.	.
*tremolo	*	*	*	*	*	*	*	*
8A-L 8E- 8C 8AA-\	8aa-\L	.	4r	.	.	4r	.	.
8A- 8E- 8C 8AA-\	8ddn\	.	.	.	.	.	.	.
8A-J 8E- 8C 8AA-\	8ff\J	.	8r	.	.	8r	.	.
8A-L 8E- 8C 8AA-\	8ee-\L	.	4r	.	.	4r	.	.
8A- 8E- 8C 8AA-\	8cc\	[	.	.	.	.	.	.
8A-J 8E- 8C 8AA-\	8a-\J)	.	8r	.	.	8r	.	.
=173	=173	=173	=173	=173	=173	=173	=173	=173
!	!LO:TX:a:t=Flau	!	!	!	!	!	!	!
8GL 8F-X 8D- 8AA-\	8g\L	f	[2.d-\	mu-	>	[2.b-\	mu-	.
8G 8F- 8D- 8AA-\	(8ddd-\	.	.	.	.	.	.	.
8GJ 8F- 8D- 8AA-\	8bb-\J	.	.	.	.	.	.	.
8GL 8F- 8D- 8AA-\	8gg\L	.	.	.	.	.	.	.
8G 8F- 8D- 8AA-\	8ff-X\	.	.	.	.	.	.	.
8GJ 8F- 8D- 8AA-\	8dd-\J	.	.	.	.	.	.	.
8GL 8F- 8D- 8AA-\	8b-/L	.	4.d-\]	.	]	4.b-\]	.	.
8G 8F- 8D- 8AA-\	8g/	.	.	.	.	.	.	.
8GJ 8F- 8D- 8AA-\	8b-/J)	.	.	.	.	.	.	.
*Xtremolo	*	*	*	*	*	*	*	*
=174	=174	=174	=174	=174	=174	=174	=174	=174
!LO:TX:a:rj:t=Cello	!	!	!	!	!	!	!	!
8A-L 8E- 8C 8AA-\	4a-/	.	4.c\	-szę	.	4.a-/	-szę	.
8c'\	.	p	.	.	.	.	.	.
8E-'\J	8r	.	.	.	.	.	.	.
!	!LO:TX:b:i:t=rallen	!	!	!	!	!	!	!
8A-'\L	(>4a- 4e- 4c'>/	.	4r	.	.	4r	.	.
8C'\	.	.	.	.	.	.	.	.
8E-'\J	8r	.	8r	.	.	8r	.	.
8AA-'/L	4a- 4e- 4c'>/)	.	4r	.	.	4r	.	.
8C'/	.	.	.	.	.	.	.	.
8EE-'/J	8r	.	8r	.	.	8r	.	.
=175	=175	=175	=175	=175	=175	=175	=175	=175
2.AA-;/	2.a- 2.e- 2.c;/	.	8%9r;	.	.	8%9r;	.	.
4r	4r	.	.	.	.	.	.	.
8r;	8r;	.	.	.	.	.	.	.
!!LO:LB:g=original
=176||	=176||	=176||	=176||	=176||	=176||	=176||	=176||	=176||
*k[b-e-a-]	*k[b-e-a-]	*	*k[b-e-a-]	*	*	*k[b-e-a-]	*	*
*M4/4	*M4/4	*	*M4/4	*	*	*M4/4	*	*
*met(c)	*met(c)	*	*met(c)	*	*	*met(c)	*	*
!!LO:TX:t=P:problem:znak przykluczowy dn wpisany po bemolach
!LO:TX:a:t=Cor	!LO:TX:a:t=Trombe	!LO:DY:b:rj	!	!	!	!LO:TX:a:B:t=Allegro furioso.	!	!
1G 1GG	1g	ff	1r	.	.	1r	.	.
=177	=177	=177	=177	=177	=177	=177	=177	=177
*	*tremolo	*	*	*	*	*	*	*
!LO:TX:b:t=Fag:problem:na pięciolinii	!LO:TX:a:t=Vni	!	!	!	!	!	!	!
1f 1d	16gg\LL	.	1r	.	.	1r	.	.
.	16g\	.	.	.	.	.	.	.
.	16gg\	.	.	.	.	.	.	.
.	16g\	.	.	.	.	.	.	.
.	16gg\	.	.	.	.	.	.	.
.	16g\	.	.	.	.	.	.	.
.	16gg\	.	.	.	.	.	.	.
.	16g\JJ	.	.	.	.	.	.	.
.	16gg\LL	.	.	.	.	.	.	.
.	16g\	.	.	.	.	.	.	.
.	16gg\	.	.	.	.	.	.	.
.	16g\	.	.	.	.	.	.	.
.	16gg\	.	.	.	.	.	.	.
.	16g\	.	.	.	.	.	.	.
.	16gg\	.	.	.	.	.	.	.
.	16g\JJ	.	.	.	.	.	.	.
=178	=178	=178	=178	=178	=178	=178	=178	=178
2en 2c#X\	16gg\LL	.	1r	.	.	1r	.	.
.	16g\	.	.	.	.	.	.	.
.	16gg\	.	.	.	.	.	.	.
.	16g\	.	.	.	.	.	.	.
.	16gg\	.	.	.	.	.	.	.
!	!	!LO:HP:b:t=dim	!	!	!	!	!	!
.	16g\	>	.	.	.	.	.	.
.	16gg\	.	.	.	.	.	.	.
.	16g\JJ	.	.	.	.	.	.	.
2e-X 2cn\	16gg\LL	.	.	.	.	.	.	.
.	16g\	.	.	.	.	.	.	.
.	16gg\	.	.	.	.	.	.	.
.	16g\	.	.	.	.	.	.	.
.	16gg\	.	.	.	.	.	.	.
.	16g\	.	.	.	.	.	.	.
.	16gg\	.	.	.	.	.	.	.
.	16g\JJ	.	.	.	.	.	.	.
=179	=179	=179	=179	=179	=179	=179	=179	=179
4d 4Bn\	16gg\LL	.	1r	.	.	1r	.	.
.	16g\	.	.	.	.	.	.	.
.	16gg\	.	.	.	.	.	.	.
.	16g\	.	.	.	.	.	.	.
4c 4A-\	16gg\	.	.	.	.	.	.	.
.	16g\	.	.	.	.	.	.	.
.	16gg\	.	.	.	.	.	.	.
.	16g\JJ	.	.	.	.	.	.	.
4B 4G\	16gg\LL	<	.	.	.	.	.	.
.	16g\	.	.	.	.	.	.	.
.	16gg\	.	.	.	.	.	.	.
.	16g\	.	.	.	.	.	.	.
[4A- [4F^<\	16gg\	.	.	.	.	.	.	.
.	16g\	.	.	.	.	.	.	.
.	16gg\	.	.	.	.	.	.	.
.	16g\JJ	.	.	.	.	.	.	.
=180	=180	=180	=180	=180	=180	=180	=180	=180
4A-] 4F\]	16gg\LL	.	1r	.	.	2r	.	.
.	16g\	.	.	.	.	.	.	.
.	16gg\	.	.	.	.	.	.	.
.	16g\	.	.	.	.	.	.	.
2E- 2C\	16gg\	.	.	.	.	.	.	.
.	16g\	.	.	.	.	.	.	.
.	16gg\	.	.	.	.	.	.	.
.	16g\JJ	.	.	.	.	.	.	.
.	16gg\LL	.	.	.	.	4r	.	.
.	16g\	.	.	.	.	.	.	.
.	16gg\	.	.	.	.	.	.	.
.	16g\	.	.	.	.	.	.	.
4F 4D\	16gg\	[	.	.	.	8r	.	.
.	16g\	.	.	.	.	.	.	.
!	!	!	!	!	!	!	!	!LO:DY:b:rj
.	16gg\	.	.	.	.	8g/	Zu-	f
.	16g\JJ	.	.	.	.	.	.	.
*	*Xtremolo	*	*	*	*	*	*	*
=181	=181	=181	=181	=181	=181	=181	=181	=181
8E-L 8C\	16c/LL	fp	1r	.	.	2gg\	-a-	.
.	16d/	.	.	.	.	.	.	.
8E- 8C\	16e-/	.	.	.	.	.	.	.
.	16d/JJ	.	.	.	.	.	.	.
8E- 8C\	16c/LL	.	.	.	.	.	.	.
.	16G/	.	.	.	.	.	.	.
8E-J 8C\	16A-/	.	.	.	.	.	.	.
.	16G/JJ	.	.	.	.	.	.	.
8E-L 8C\	16c/LL	.	.	.	.	2g/	-nie	.
.	16d/	.	.	.	.	.	.	.
8E- 8C\	16e-/	.	.	.	.	.	.	.
.	16d/JJ	.	.	.	.	.	.	.
8E- 8C\	16c/LL	.	.	.	.	.	.	.
.	16G/	.	.	.	.	.	.	.
8E-J 8C\	16A-/	.	.	.	.	.	.	.
.	16G/JJ	.	.	.	.	.	.	.
!!LO:LB:g=original
=182	=182	=182	=182	=182	=182	=182	=182	=182
8E-L 8C\	16c/LL	.	1r	.	.	4a-/	to-	.
.	16d/	.	.	.	.	.	.	.
8E- 8C\	16e-/	.	.	.	.	.	.	.
.	16d/JJ	.	.	.	.	.	.	.
8E- 8C\	16c/LL	.	.	.	.	8g/	-bie	.
.	16G/	.	.	.	.	.	.	.
8E-J 8C\	16A-/	.	.	.	.	8g/	chce	.
.	16G/JJ	.	.	.	.	.	.	.
8E-L 8C\	16c/LL	.	.	.	.	4.ee-\	wier-	.
.	16d/	.	.	.	.	.	.	.
8E- 8C\	16e-/	.	.	.	.	.	.	.
.	16d/JJ	.	.	.	.	.	.	.
8E- 8C\	16c/LL	.	.	.	.	.	.	.
.	16G/	.	.	.	.	.	.	.
8E-J 8C\	16A-/	.	.	.	.	8cc\	-ną	.
.	16G/JJ	.	.	.	.	.	.	.
=183	=183	=183	=183	=183	=183	=183	=183	=183
!	!	!LO:DY:b:rj	!	!	!LO:DY:b:rj	!	!	!
8FL 8D 8BBn\	16d/LL	fp	2g\	Mam-	f	4dd\	być	.
.	16e-/	.	.	.	.	.	.	.
8F 8D 8BB\	16f/	.	.	.	.	.	.	.
.	16e-/JJ	.	.	.	.	.	.	.
8F 8D 8BB\	16d/LL	.	.	.	.	4r	.	.
.	16G/	.	.	.	.	.	.	.
8FJ 8D 8BB\	16A-/	.	.	.	.	.	.	.
.	16G/JJ	.	.	.	.	.	.	.
8FL 8D 8BB\	16d/LL	.	4.G/	-że	.	2r	.	.
.	16e-/	.	.	.	.	.	.	.
8F 8D 8BB\	16f/	.	.	.	.	.	.	.
.	16e-/JJ	.	.	.	.	.	.	.
8F 8D 8BB\	16d/LL	.	.	.	.	.	.	.
.	16G/	.	.	.	.	.	.	.
8FJ 8D 8BB\	16A-/	.	8G/	przez	.	.	.	.
.	16G/JJ	.	.	.	.	.	.	.
=184	=184	=184	=184	=184	=184	=184	=184	=184
8FL 8D 8BBn\	16d/LL	.	4A-/	cie-	.	1r	.	.
.	16e-/	.	.	.	.	.	.	.
8F 8D 8BB\	16f/	.	.	.	.	.	.	.
.	16e-/JJ	.	.	.	.	.	.	.
8F 8D 8BB\	16d/LL	.	8G/	-bie	.	.	.	.
.	16G/	.	.	.	.	.	.	.
8FJ 8D 8BB\	16A-/	.	8G/	wzgar-	.	.	.	.
.	16G/JJ	.	.	.	.	.	.	.
8FL 8D 8BB\	16d/LL	.	4.f\	-dzo-	.	.	.	.
.	16e-/	.	.	.	.	.	.	.
8F 8D 8BB\	16f/	.	.	.	.	.	.	.
.	16e-/JJ	.	.	.	.	.	.	.
8F 8D 8BB\	16d/LL	.	.	.	.	.	.	.
.	16G/	.	.	.	.	.	.	.
8FJ 8D 8BB\	16A-/	.	8d\	-nym	.	.	.	.
.	16G/JJ	.	.	.	.	.	.	.
!!LO:LB:g=original
=185	=185	=185	=185	=185	=185	=185	=185	=185
!	!	!LO:DY:b:rj	!	!	!	!	!	!
8E-L 8C\	16c/LL	fp	4e-\	być	.	2gg\	Smierć	.
.	16d/	.	.	.	.	.	.	.
8E- 8C\	16e-/	.	.	.	.	.	.	.
.	16d/JJ	.	.	.	.	.	.	.
8E- 8C\	16c/LL	.	4r	.	.	.	.	.
.	16G/	.	.	.	.	.	.	.
8E-J 8C\	16A-/	.	.	.	.	.	.	.
.	16G/JJ	.	.	.	.	.	.	.
8E-L 8C\	16c/LL	.	2r	.	.	4.g/	nie-	.
.	16d/	.	.	.	.	.	.	.
8E- 8C\	16e-/	.	.	.	.	.	.	.
.	16d/JJ	.	.	.	.	.	.	.
8E- 8C\	16c/LL	.	.	.	.	.	.	.
.	16G/	.	.	.	.	.	.	.
8E-J 8C\	16A-/	.	.	.	.	8g/	-u-	.
.	16G/JJ	.	.	.	.	.	.	.
=186	=186	=186	=186	=186	=186	=186	=186	=186
8E-L 8C\	16c/LL	.	1r	.	.	4a-/	-stra-	.
.	16d/	.	.	.	.	.	.	.
8E- 8C\	16e-/	.	.	.	.	.	.	.
.	16d/JJ	.	.	.	.	.	.	.
8E- 8C\	16c/LL	.	.	.	.	8g/	-szy	.
.	16G/	.	.	.	.	.	.	.
8E-J 8C\	16A-/	.	.	.	.	8g/	ko-	.
.	16G/JJ	.	.	.	.	.	.	.
8E-L 8C\	16c/LL	.	.	.	.	4.ee-\	-cha[n]-	.
.	16d/	.	.	.	.	.	.	.
8E- 8C\	16e-/	.	.	.	.	.	.	.
.	16d/JJ	.	.	.	.	.	.	.
8E- 8C\	16c/LL	.	.	.	.	.	.	.
.	16G/	.	.	.	.	.	.	.
8E-J 8C\	16A-/	.	.	.	.	8cc\	-ki	.
.	16G/JJ	.	.	.	.	.	.	.
=187	=187	=187	=187	=187	=187	=187	=187	=187
8FL 8D 8BBn\	16d/LL	.	4.g\	Ma-	.	4dd\	twéj	.
.	16e-/	.	.	.	.	.	.	.
8F 8D 8BB\	16f/	.	.	.	.	.	.	.
.	16e-/JJ	.	.	.	.	.	.	.
8F 8D 8BB\	16d/LL	.	.	.	.	4r	.	.
.	16G/	.	.	.	.	.	.	.
8FJ 8D 8BB\	16A-/	.	8G/	-ry-	.	.	.	.
.	16G/JJ	.	.	.	.	.	.	.
8FL 8D 8BB\	16d/LL	.	4.G/	-o	.	2r	.	.
.	16e-/	.	.	.	.	.	.	.
8F 8D 8BB\	16f/	.	.	.	.	.	.	.
.	16e-/JJ	.	.	.	.	.	.	.
8F 8D 8BB\	16d/LL	.	.	.	.	.	.	.
.	16G/	.	.	.	.	.	.	.
8FJ 8D 8BB\	16A-/	.	8G/	choć	.	.	.	.
.	16G/JJ	.	.	.	.	.	.	.
!!LO:PB:g=original
=188	=188	=188	=188	=188	=188	=188	=188	=188
8FL 8D 8BBn\	16d/LL	.	4A-/	li-	.	1r	.	.
.	16e-/	.	.	.	.	.	.	.
8F 8D 8BB\	16f/	.	.	.	.	.	.	.
.	16e-/JJ	.	.	.	.	.	.	.
8F 8D 8BB\	16d/LL	.	8G/	-tość	.	.	.	.
.	16G/	.	.	.	.	.	.	.
8FJ 8D 8BB\	16A-/	.	8G/	na-	.	.	.	.
.	16G/JJ	.	.	.	.	.	.	.
8FL 8D 8BB\	16d/LL	.	4.f\	-de-	.	.	.	.
.	16e-/	.	.	.	.	.	.	.
8F 8D 8BB\	16f/	.	.	.	.	.	.	.
.	16e-/JJ	.	.	.	.	.	.	.
8F 8D 8BB\	16d/LL	.	.	.	.	.	.	.
.	16G/	.	.	.	.	.	.	.
8FJ 8D 8BB\	16A-/	.	8d\	-mną	.	.	.	.
.	16G/JJ	.	.	.	.	.	.	.
=189	=189	=189	=189	=189	=189	=189	=189	=189
8E-L 8C\	16e-/LL	.	4e-\	miéj	.	2r	.	.
.	16f/	.	.	.	.	.	.	.
8G 8E- 8C\	16g/	.	.	.	.	.	.	.
.	16f/JJ	.	.	.	.	.	.	.
8G 8E- 8C\	16e-/LL	.	4r	.	.	.	.	.
.	16c/	.	.	.	.	.	.	.
8GJ 8E- 8C\	16d-X/	.	.	.	.	.	.	.
.	16c/JJ	.	.	.	.	.	.	.
8GL 8E- 8C\	16e-/LL	.	2r	.	.	4r	.	.
.	16f/	.	.	.	.	.	.	.
8G 8E- 8C\	16g/	.	.	.	.	.	.	.
.	16f/JJ	.	.	.	.	.	.	.
8G 8E- 8C\	16e-/LL	.	.	.	.	4cc\	Bez	.
.	16c/	.	.	.	.	.	.	.
8GJ 8E- 8C\	16d-/	.	.	.	.	.	.	.
.	16c/JJ	.	.	.	.	.	.	.
=190	=190	=190	=190	=190	=190	=190	=190	=190
8A-L 8F 8C\	16f/LL	fp	8r	.	.	2.cc\	twéj	.
.	16g/	.	.	.	.	.	.	.
8A- 8F 8C\	16a-/	.	8F/	oh!	.	.	.	.
.	16g/JJ	.	.	.	.	.	.	.
8A- 8F 8C\	16f/LL	.	8A-/	ja	.	.	.	.
.	16c/	.	.	.	.	.	.	.
8A-J 8F 8C\	16d-X/	.	8c\	bez	.	.	.	.
.	16c/JJ	.	.	.	.	.	.	.
8A-L 8F 8C\	16f/LL	p	4f\	cie-	.	.	.	.
.	16g/	.	.	.	.	.	.	.
8A- 8F 8C\	16a-/	.	.	.	.	.	.	.
.	16g/JJ	.	.	.	.	.	.	.
8A- 8F 8C\	16f/LL	.	4f\	-bie	.	4a-/	mi-	.
.	16c/	.	.	.	.	.	.	.
8A-J 8F 8C\	16d-/	.	.	.	.	.	.	.
.	16c/JJ	.	.	.	.	.	.	.
!!LO:LB:g=original
=191	=191	=191	=191	=191	=191	=191	=191	=191
.	.	.	.	.	.	4qqa-/	-ło-	.
!	!	!LO:DY:b:rj	!	!	!	!	!	!
8GL 8E- 8C\	16e-/LL	fp	8r	.	.	2g/	-ści	.
.	16f/	.	.	.	.	.	.	.
8G 8E- 8C\	16g/	.	8c\	nie	.	.	.	.
.	16f/JJ	.	.	.	.	.	.	.
8G 8E- 8C\	16e-/LL	.	8e-\	mo-	.	.	.	.
.	16c/	.	.	.	.	.	.	.
8GJ 8E- 8C\	16d-X/	.	8G/	-gę	.	.	.	.
.	16c/JJ	.	.	.	.	.	.	.
8GL 8E- 8C\	16e-/LL	p	4c\	żyć	.	4r	.	.
.	16f/	.	.	.	.	.	.	.
8G 8E- 8C\	16g/	.	.	.	.	.	.	.
.	16f/JJ	.	.	.	.	.	.	.
8G 8E- 8C\	16e-/LL	.	4r	.	.	4cc\	nie	.
.	16c/	.	.	.	.	.	.	.
8GJ 8E- 8C\	16d-/	.	.	.	.	.	.	.
.	16c/JJ	.	.	.	.	.	.	.
=192	=192	=192	=192	=192	=192	=192	=192	=192
8A-L 8F 8C\	16f/LL	fp	8r	.	.	2.cc\	mo-	.
.	16g/	.	.	.	.	.	.	.
8A- 8F 8C\	16a-/	.	8F/	Nikt	.	.	.	.
.	16g/JJ	.	.	.	.	.	.	.
8A- 8F 8C\	16f/LL	.	8A-/	mi	.	.	.	.
.	16c/	.	.	.	.	.	.	.
8A-J 8F 8C\	16d-X/	.	8c\	dziś	.	.	.	.
.	16c/JJ	.	.	.	.	.	.	.
8A-L 8F 8C\	16f/LL	p	4f\	rę-	.	.	.	.
.	16g/	.	.	.	.	.	.	.
8A- 8F 8C\	16a-/	.	.	.	.	.	.	.
.	16g/JJ	.	.	.	.	.	.	.
8A- 8F 8C\	16f/LL	.	4f\	-ki	.	4a-/	-gę	.
.	16c/	.	.	.	.	.	.	.
8A-J 8F 8C\	16d-/	.	.	.	.	.	.	.
.	16c/JJ	.	.	.	.	.	.	.
=193	=193	=193	=193	=193	=193	=193	=193	=193
8GL 8E- 8C\	16e-/LL	.	8r	.	.	4g/	żyć	.
.	16f/	.	.	.	.	.	.	.
8G 8E- 8C\	16g/	.	8c\	nie	.	.	.	.
.	16f/JJ	.	.	.	.	.	.	.
8G 8E- 8C\	16e-/LL	.	8e-\	wy-	.	4r	.	.
.	16c/	.	.	.	.	.	.	.
8GJ 8E- 8C\	16d-X/	.	8G/	-drze	.	.	.	.
.	16c/JJ	.	.	.	.	.	.	.
8GL 8E- 8C\	16e-/LL	.	4c\	nie	.	4r	.	.
.	16f/	.	.	.	.	.	.	.
8G 8E- 8C\	16g/	.	.	.	.	.	.	.
.	16f/JJ	.	.	.	.	.	.	.
8G 8E- 8C\	16e-/LL	.	4r	.	.	4gg\	ty	.
.	16c/	.	.	.	.	.	.	.
8GJ 8E- 8C\	16d-/	.	.	.	.	.	.	.
.	16c/JJ	.	.	.	.	.	.	.
!!LO:LB:g=original
=194	=194	=194	=194	=194	=194	=194	=194	=194
.	.	.	.	.	.	4qqgg/	st-	.
8FL 8D-X 8AA- 8FF/	16d-X/LL	.	8r	.	.	2ff\	-ałą	.
!	!	!LO:HP:b:t=dimin	!	!	!	!	!	!
.	16e-/	>	.	.	.	.	.	.
8F 8D- 8AA- 8FF/	16f/	.	8F/	Nikt	.	.	.	.
.	16e-/JJ	.	.	.	.	.	.	.
8F 8D- 8AA- 8FF/	16d-/LL	.	8A-/	mi	.	.	.	.
.	16A-/	.	.	.	.	.	.	.
8FJ 8D- 8AA- 8FF/	16B-/	.	8d-X\	dziś	.	.	.	.
.	16A-/JJ	.	.	.	.	.	.	.
8FL 8D- 8AA- 8FF/	16d-/LL	.	4f\	rę-	.	2r	.	.
.	16e-/	.	.	.	.	.	.	.
8F 8D- 8AA- 8FF/	16f/	.	.	.	.	.	.	.
.	16e-/JJ	.	.	.	.	.	.	.
8F 8D- 8AA- 8FF/	16d-/LL	.	4f\	-ki	.	.	.	.
.	16A-/	.	.	.	.	.	.	.
8FJ 8D- 8AA- 8FF/	16B-/	.	.	.	.	.	.	.
.	16A-/JJ	.	.	.	.	.	.	.
=195	=195	=195	=195	=195	=195	=195	=195	=195
.	.	.	.	.	.	4qqff/	u-	.
8E-L 8C 8GG/	16c/LL	.	8r	.	.	2ee-\	-fność	.
.	16dn/	.	.	.	.	.	.	.
8E- 8C 8GG/	16e-/	.	8G/	nie	.	.	.	.
.	16d/JJ	.	.	.	.	.	.	.
8E- 8C 8GG/	16c/LL	.	8c\	wy-	.	.	.	.
.	16G/	.	.	.	.	.	.	.
8E-J 8C 8GG/	16A-/	.	8e-\	-drze	.	.	.	.
.	16G/JJ	.	.	.	.	.	.	.
8E-L 8C 8GG/	16c/LL	.	2g^\	nie	.	4r	.	.
.	16d/	.	.	.	.	.	.	.
8E- 8C 8GG/	16e-/	.	.	.	.	.	.	.
.	16d/JJ	.	.	.	.	.	.	.
8E- 8C 8GG/	16c/LL	.	.	.	.	4ee-\	w mém	.
.	16G/	.	.	.	.	.	.	.
8E-J 8C 8GG/	16A-/	.	.	.	.	.	.	.
.	16G/JJ	.	.	.	.	.	.	.
=196	=196	=196	=196	=196	=196	=196	=196	=196
8FL 8D 8GG/	16Bn/LL	.	4r	.	.	2.ee-\	ser-	.
.	16c/	.	.	.	.	.	.	.
8F 8D 8GG/	16d/	.	.	.	.	.	.	.
.	16c/JJ	.	.	.	.	.	.	.
8F 8D 8GG/	16B/LL	.	4B\	nie	.	.	.	.
.	16G/	.	.	.	.	.	.	.
8FJ 8D 8GG/	16A-/	.	.	.	.	.	.	.
.	16G/JJ	.	.	.	.	.	.	.
8FL 8D 8GG/	16B/LL	.	4B\	wy-	.	.	.	.
.	16c/	.	.	.	.	.	.	.
8F 8D 8GG/	16d/	.	.	.	.	.	.	.
.	16c/JJ	.	.	.	.	.	.	.
8F 8D 8GG/	16B/LL	.	4B\	-drze	.	4dd\	-cu	.
.	16G/	.	.	.	.	.	.	.
8FJ 8D 8GG/	16A-/	.	.	.	.	.	.	.
.	16G/JJ	.	.	.	.	.	.	.
!!LO:LB:g=original
=197||	=197||	=197||	=197||	=197||	=197||	=197||	=197||	=197||
*k[]	*k[]	*	*k[]	*	*	*k[]	*	*
4E 4C\	4c/	p	4c\	twéj	.	4cc\	miéj	.
*	*8va	*	*	*	*	*	*	*
!	!LO:TX:b:rj:t=Clar	!	!	!	!	!	!	!
!	!LO:TX:a:rj:t=Ob:problem:na pięciolinii	!	!	!	!	!	!	!
!	!LO:TX:a:rj:t=Flau	!	!	!	!	!	!	!
8r	(4eee 4gg 4ee/	.	4r	.	.	4r	.	.
(16E\LL	.	.	.	.	.	.	.	.
16F\JJ	.	.	.	.	.	.	.	.
8G'\L)	4ddd#X 4ff# 4dd#X/	.	2r	.	.	2r	.	.
(16G\L	.	.	.	.	.	.	.	.
16F\JJ	.	.	.	.	.	.	.	.
8E'\L)	4eee 4gg 4ee/	.	.	.	.	.	.	.
(16E\L	.	.	.	.	.	.	.	.
16D\JJ	.	.	.	.	.	.	.	.
=198	=198	=198	=198	=198	=198	=198	=198	=198
4C'>/)	4ccc 4ee 4cc/)	.	1r	.	.	1r	.	.
8r	(4eee 4gg 4ee/	.	.	.	.	.	.	.
(16D/LL	.	.	.	.	.	.	.	.
16C/JJ	.	.	.	.	.	.	.	.
8BB'/L)	4.fff 4.aa 4.ff^>/	.	.	.	.	.	.	.
(16AA/L	.	.	.	.	.	.	.	.
16BB/JJ	.	.	.	.	.	.	.	.
8C'/L)	.	.	.	.	.	.	.	.
(16BB/L	8eee 8gg 8ee/)	.	.	.	.	.	.	.
16C/JJ	.	.	.	.	.	.	.	.
=199	=199	=199	=199	=199	=199	=199	=199	=199
4GG'/)	8ddd 8ff 8dd/	.	4r	.	.	4r	.	.
.	8r	.	.	.	.	.	.	.
8r	[2.fff [2.ddd [2.ff\	fz < [[	4d^\	Mam-	.	4ff^\	Żu-	.
16GGLL 16GGG/	.	.	.	.	.	.	.	.
16GGJJ 16GGG/	.	.	.	.	.	.	.	.
8GGL 8GGG/	.	.	4d^\	-że	.	4ff^\	-a-	.
8GG#X 8GGG#X/	.	.	.	.	.	.	.	.
8AA 8AAA/	.	.	4d^\	przez	.	4ff^\	-nie	.
8AA#XJ 8AAA#X/	.	.	.	.	.	.	.	.
=200	=200	=200	=200	=200	=200	=200	=200	=200
4BB 4BBB/	4fff] 4ddd] 4ff\]	f	4d\	cie-	.	4ff\	to-	.
4r	[4fff [4ddd [4ff\	sf	8d\	-bie	.	8ff\	-bie	.
.	.	.	8d\	wzgar-	.	8ff\	chcę	.
(2GG ((2GGG/	(16fff]LL 16ddd] 16ff\]	>	4.d\	-dzo-	.	4.ff\	wier-	.
.	16eee 16ccc\	.	.	.	.	.	.	.
.	16ddd 16bb\	.	.	.	.	.	.	.
.	16cccJJ 16aa\	.	.	.	.	.	.	.
.	16bbLL 16gg/	.	.	.	.	.	.	.
.	16aa 16ff/	.	.	.	.	.	.	.
.	16gg 16ee/	.	8d\	-nym	.	8ff\	-ną	.
.	16ffJJ 16dd/)	]	.	.	.	.	.	.
*	*X8va	*	*	*	*	*	*	*
!!LO:PB:g=original
=201||	=201||	=201||	=201||	=201||	=201||	=201||	=201||	=201||
*	*8va	*	*	*	*	*	*	*
4C 4CC/)))	4ee 4cc/	.	4c\	być.	.	4ee\	być.	.
8r	(4eee 4gg 4ee/	p	4r	.	.	4r	.	.
(16E\LL	.	.	.	.	.	.	.	.
16F\JJ	.	.	.	.	.	.	.	.
8G'\L)	4ddd#X 4ff#X 4dd#X/	.	2r	.	.	2r	.	.
(16G\L	.	.	.	.	.	.	.	.
16F\JJ	.	.	.	.	.	.	.	.
8E'\L)	4eee 4gg 4ee/)	.	.	.	.	.	.	.
(16E\L	.	.	.	.	.	.	.	.
16D\JJ	.	.	.	.	.	.	.	.
=202	=202	=202	=202	=202	=202	=202	=202	=202
4C'>/)	4ccc 4ee 4cc/	.	1r	.	.	1r	.	.
8r	(4eee 4gg 4ee/	.	.	.	.	.	.	.
(16D/LL	.	.	.	.	.	.	.	.
16C/JJ	.	.	.	.	.	.	.	.
8BB'/L)	4.fff 4.aa 4.ff^>/	.	.	.	.	.	.	.
(16AA/L	.	.	.	.	.	.	.	.
16BB/JJ	.	.	.	.	.	.	.	.
8C'/L)	.	.	.	.	.	.	.	.
(16BB/L	8eee 8gg 8ee/)	.	.	.	.	.	.	.
16C/JJ	.	.	.	.	.	.	.	.
=203	=203	=203	=203	=203	=203	=203	=203	=203
4GG'/)	8ddd 8ff 8dd/	.	4r	.	.	4r	.	.
.	8r	.	.	.	.	.	.	.
!	!	!LO:DY:b:rj	!	!	!	!	!	!
8r	[2.fff [2.ddd [2.ff\	fz<	4d\	ah!	.	4ff\	Smierć	.
16GGLL 16GGG/	.	.	.	.	.	.	.	.
16GGJJ 16GGG/	.	.	.	.	.	.	.	.
8GGL 8GGG/	.	.	4d\	li-	.	4ff\	nie	.
8GG#X 8GGG#X/	.	.	.	.	.	.	.	.
8AA 8AAA/	.	.	4d\	-tość	.	4ff\	u-	.
8AA#XJ 8AAA#X/	.	[	.	.	.	.	.	.
=204	=204	=204	=204	=204	=204	=204	=204	=204
4BB 4BBB/	8fff] 8ddd] 8ff\]	f	4d\	Ma-	.	4ff\	-stra-	.
.	8r	.	.	.	.	.	.	.
4r	[4fff [4ddd [4ff\	sf	8d\	-rjo	.	8ff\	-szy	.
.	.	.	8d\	na-	.	8ff\	ko-	.
(2GG (2GGG/	(16fff]LL 16ddd] 16ff\]	>	4.d\	-de	.	4.ff\	-chan-	.
.	16eee 16ccc\	.	.	.	.	.	.	.
.	16ddd 16bb\	.	.	.	.	.	.	.
.	16cccJJ 16aa\	.	.	.	.	.	.	.
.	16bbLL 16gg/	.	.	.	.	.	.	.
.	16aa 16ff/	.	.	.	.	.	.	.
.	16gg 16ee/	.	8d\	mną	.	8ff\	-ki	.
.	16ffJJ 16dd/)	]]	.	.	.	.	.	.
*	*X8va	*	*	*	*	*	*	*
!!LO:LB:g=original
=205	=205	=205	=205	=205	=205	=205	=205	=205
*	*8va	*	*	*	*	*	*	*
*	*	*	*^	*	*	*^	*	*
!LO:TX:t=P:problem:brak zakończenia łuków	!	!	!	!	!	!	!	!	!	!
4C) 4CC/)	4ee 4cc/	.	4c\	2ryy	miéj	.	4ee\	2ryy	twej	.
4C 4CC/	4ccc 4gg 4ee 4cc/	.	4r	.	.	.	4r	.	.	.
*	*	*	*v	*v	*	*	*	*	*	*
*	*	*	*	*	*	*v	*v	*	*
*	*X8va	*	*	*	*	*	*	*
*	*	*	*^	*	*	*^	*	*
*	*	*	*	*cue	*	*	*	*cue	*	*
!	!	!	!LO:TX:a:i:t=albo	!	!	!	!LO:TX:a:i:t=albo	!	!	!
8r	8r	.	2e\	2g/	oh!	.	2gg\	2ee/	Bez	.
(16C/LL	(16c/LL	.	.	.	.	.	.	.	.	.
16D/JJ	16d/JJ	.	.	.	.	.	.	.	.	.
8E'/L)	8e'/L)	.	.	.	.	.	.	.	.	.
(16D/L	(16d/L	.	.	.	.	.	.	.	.	.
16C/JJ	16c/JJ	.	.	.	.	.	.	.	.	.
=206!|:	=206!|:	=206!|:	=206!|:	=206!|:	=206!|:	=206!|:	=206!|:	=206!|:	=206!|:	=206!|:
*>B	*>B	*>B	*>B	*>B	*>B	*>B	*>B	*>B	*>B	*>B
*	*	*	*	*	*	*	*	*	*	*
!!LO:TX:t=P:problem:dynamika pp tylko dla drugiej wolty
!	!	!	!	!	!	!	!LO:TX:b:i:t=la seconda volta pianissimo al-:dur=12q:ext=ud:problem:text with extention lines	!	!	!
!	!LO:TX:b:i:t=la seconda volta pp al-:dur=12q:ext=ud:problem:text with extention lines	!	!	!	!	!	!LO:TX:a:t=*):Małe nutki znaczą, że śpiewacy mogą wybrać intervalla podług upodobania&colon; to jest, śpiewać w decymach lub sekstach.:footnote	!	!	!
8AA'/L)	8A'/L)	.	2e-X\	2f#X/	ja	.	2ff#X\	2ee-X/	twej	.
16AA/L	16A/L	.	.	.	.	.	.	.	.	.
16AA/JJ	16A/JJ	.	.	.	.	.	.	.	.	.
4AA/	4A/	.	.	.	.	.	.	.	.	.
8r	8r	.	2d\	2f/	bez	.	2ffn\	2dd/	mi-	.
(16BB/LL	(16B/LL	.	.	.	.	.	.	.	.	.
16AA/JJ	16A/JJ	.	.	.	.	.	.	.	.	.
8GG'/L)	8G'/L)	.	.	.	.	.	.	.	.	.
(16AA/L	(16A/L	.	.	.	.	.	.	.	.	.
16BB/JJ	16B/JJ	.	.	.	.	.	.	.	.	.
=207	=207	=207	=207	=207	=207	=207	=207	=207	=207	=207
8C'/L)	8c'/L)	.	2c\	2e/	cie-	.	2ee\	2cc/	-ło-	.
16C/L	16c/L	.	.	.	.	.	.	.	.	.
16C/JJ	16c/JJ	.	.	.	.	.	.	.	.	.
4C/	4c/	.	.	.	.	.	.	.	.	.
8r	8r	.	4e\	4g/	-bie	.	4gg\	4ee/	-ści	.
(16C/LL	(16c/LL	.	.	.	.	.	.	.	.	.
16D/JJ	16d/JJ	.	.	.	.	.	.	.	.	.
8E'/L)	8e'/L)	.	4e\	4g/	nie	.	4gg\	4ee/	nie	.
(16D/L	(16d/L	.	.	.	.	.	.	.	.	.
16C/JJ	16c/JJ	.	.	.	.	.	.	.	.	.
=208	=208	=208	=208	=208	=208	=208	=208	=208	=208	=208
8AA'/L)	8A'/L)	.	2e-X\	2f#X/	mo-	.	2ff#X\	2ee/	mo-	.
16AA'/L	16A'/L	.	.	.	.	.	.	.	.	.
16AA'/JJ	16A'/JJ	.	.	.	.	.	.	.	.	.
4AA'/	4A'/	.	.	.	.	.	.	.	.	.
8r	8r	.	2d\	2f/	-gę	.	2ffn\	2dd/	-gę	.
(16BB/LL	(16B/LL	.	.	.	.	.	.	.	.	.
16AA/JJ	16A/JJ	.	.	.	.	.	.	.	.	.
8GG'/L)	8G'/L)	.	.	.	.	.	.	.	.	.
(16AA/L	(16A/L	.	.	.	.	.	.	.	.	.
16BB/JJ	16B/JJ	.	.	.	.	.	.	.	.	.
!!LO:LB:g=original
=209	=209	=209	=209	=209	=209	=209	=209	=209	=209	=209
!	!LO:TX:b:t=cres-cen-do:ext=cd:problem:text with extention lines	!	!	!LO:TX:t=cres-cen-do:ext=cd:problem:text with extention lines	!	!	!	!	!	!
8C'/L)	8c'/L)	<	4c\	4e/	żyć	<	4ee\	4cc/	żyć	.
(16C/L	(16c/L	.	.	.	.	.	.	.	.	.
16D/JJ	16d/JJ	.	.	.	.	.	.	.	.	.
8E'/L)	8e'/L)	.	4e\	4g/	nikt	.	4gg\	4ee/	ty	.
(16D/L	(16d/L	.	.	.	.	.	.	.	.	.
16C/JJ	16c/JJ	.	.	.	.	.	.	.	.	.
8AA'/L)	8A'/L)	.	4e-X\	4f#X/	mi	.	4ff#X\	4ee-X/	sta-	.
16AA'/L	16A'/L	.	.	.	.	.	.	.	.	.
16AA'/JJ	16A'/JJ	.	.	.	.	.	.	.	.	.
8BB'/L	8B'/L	.	4d\	4f/	dziś	.	4ffn\	4ddn/	-łą	.
(16AA/L	(16A/L	.	.	.	.	.	.	.	.	.
16GG/JJ	16G/JJ	.	.	.	.	.	.	.	.	.
=210	=210	=210	=210	=210	=210	=210	=210	=210	=210	=210
8C'/L)	8c'/L)	.	4c\	4e/	rę-	.	4ee\	4cc/	u-	.
(16C/L	(16c/L	.	.	.	.	.	.	.	.	.
16D/JJ	16d/JJ	.	.	.	.	.	.	.	.	.
8E'/L)	8e'/L)	.	8e\	8g/	-ki	.	8gg\	8ee/	-fność	.
(16D/L	(16d/L	.	8e\	8g/	nie-	.	8gg\	8ee/	w mém	.
16C/JJ	16c/JJ	.	.	.	.	.	.	.	.	.
8AA'/L)	8A'/L)	.	4e-X\	4f#X/	-wy-	.	4ff#X\	4ee-X/	ser-	.
16AA'/L	16A'/L	.	.	.	.	.	.	.	.	.
16AA'/JJ	16A'/JJ	.	.	.	.	.	.	.	.	.
8BB'/L	8B'/L	.	4d\	4f/	-drze	[[	4ffn\	4ddn/	-cu	.
(16AA/L	(16A/L	[[	.	.	.	.	.	.	.	.
16GG/JJ	16G/JJ	.	.	.	.	.	.	.	.	.
=211	=211	=211	=211	=211	=211	=211	=211	=211	=211	=211
4C/)	4c/)	ff	4c\	4e/	twéj	.	4ee\	4cc/	miéj	.
(16qqGG/LL	(16qqG/LL	.	.	.	.	.	.	.	.	.
16qqAA/	16qqA/	.	.	.	.	.	.	.	.	.
16qqBB/JJ	16qqB/JJ	.	.	.	.	.	.	.	.	.
4C/)	4c/)	sf	4r	4ryy	.	.	4r	4ryy	.	.
(16qqGG/LL	(16qqG/LL	.	.	.	.	.	.	.	.	.
16qqAA/	16qqA/	.	.	.	.	.	.	.	.	.
16qqBB/JJ	16qqB/JJ	.	.	.	.	.	.	.	.	.
4C/)	4c/)	sf	2r	2ryy	.	.	2r	2ryy	.	.
(16qqGG/LL	(16qqG/LL	.	.	.	.	.	.	.	.	.
16qqAA/	16qqA/	.	.	.	.	.	.	.	.	.
16qqBB/JJ	16qqB/JJ	.	.	.	.	.	.	.	.	.
4C/)	4c/)	sf	.	.	.	.	.	.	.	.
*	*	*	*v	*v	*	*	*	*	*	*
*	*	*	*	*	*	*v	*v	*	*
!!LO:PB:g=original
=212	=212	=212	=212	=212	=212	=212	=212	=212
(16qqGG/LL	(16qqG/LL	.	.	.	.	.	.	.
16qqAA/	16qqA/	.	.	.	.	.	.	.
16qqBB/JJ	16qqB/JJ	.	.	.	.	.	.	.
8C\L)	8c/L)	.	2r	.	.	2r	.	.
8G 8E 8C\	8e/	<	.	.	.	.	.	.
8G 8E 8C\	8g/	.	.	.	.	.	.	.
8GJ 8E 8C\	8cc/J	.	.	.	.	.	.	.
8GL 8E 8C\	8ee\L	.	4r	.	.	4r	.	.
8GJ 8E 8C\	8gg\	.	.	.	.	.	.	.
!	!	!	!	!	!LO:DY:b:rj	!	!	!LO:DY:b:rj
8GL 8E 8C\	8ccc\	.	4c\	ah	ff	4ee\	Żu-	ff
8GJ 8E 8BB-X\	8eee\J	[	.	.	.	.	.	.
=213	=213	=213	=213	=213	=213	=213	=213	=213
*	*tremolo	*	*	*	*	*	*	*
*	*8va	*	*	*	*	*	*	*
2G 2E 2AA\	16gggLL 16eee 16ccc#X\	ff	1e	Ma-	.	1gg	-a-	.
.	16aa\	.	.	.	.	.	.	.
.	16ggg 16eee 16ccc#\	.	.	.	.	.	.	.
.	16aa\	.	.	.	.	.	.	.
.	16ggg 16eee 16ccc#\	.	.	.	.	.	.	.
.	16aa\	.	.	.	.	.	.	.
.	16ggg 16eee 16ccc#\	.	.	.	.	.	.	.
.	16aa\JJ	.	.	.	.	.	.	.
2A 2AA\	16gggLL 16eee 16ccc#\	.	.	.	.	.	.	.
.	16aa\	.	.	.	.	.	.	.
.	16ggg 16eee 16ccc#\	.	.	.	.	.	.	.
.	16aa\	.	.	.	.	.	.	.
.	16ggg 16eee 16ccc#\	.	.	.	.	.	.	.
.	16aa\	.	.	.	.	.	.	.
.	16ggg 16eee 16ccc#\	.	.	.	.	.	.	.
.	16aa\JJ	.	.	.	.	.	.	.
=214	=214	=214	=214	=214	=214	=214	=214	=214
2A 2D\	16fff#XLL 16ddd\	.	2d\	.	.	2ff#X\	.	.
.	16aa\	.	.	.	.	.	.	.
.	16fff# 16ddd\	.	.	.	.	.	.	.
.	16aa\	.	.	.	.	.	.	.
.	16fff# 16ddd\	.	.	.	.	.	.	.
.	16aa\	.	.	.	.	.	.	.
.	16fff# 16ddd\	.	.	.	.	.	.	.
.	16aa\JJ	.	.	.	.	.	.	.
2G 2GG/	16fffnLL 16ddd 16bb\	.	2d\	-ry-	.	2ffn\	-nie	.
.	16gg\	.	.	.	.	.	.	.
.	16fff 16ddd 16bb\	.	.	.	.	.	.	.
.	16gg\	.	.	.	.	.	.	.
.	16fff 16ddd 16bb\	.	.	.	.	.	.	.
.	16gg\	.	.	.	.	.	.	.
.	16fff 16ddd 16bb\	.	.	.	.	.	.	.
.	16gg\JJ	.	.	.	.	.	.	.
*	*Xtremolo	*	*	*	*	*	*	*
=215	=215	=215	=215	=215	=215	=215	=215	=215
!	!	!	!	!	!	!	!	!LO:DY:a
4C 4CC/	4ccc 4aa\	p	4c\	-o	.	4ee\	to-	p
4r	4eee 4ccc 4gg\	.	4r	.	.	(8dd\L	-bie	.
.	.	.	.	.	.	8cc\J)	.	.
4E 4EE/	4r	.	4r	.	.	(8b\L	chce	.
.	.	.	.	.	.	8dd\J)	.	.
4r	4eee 4bb 4gg#X\	.	4e\	choć	.	8cc\	wier-	.
.	.	.	.	.	.	8b\	-ną	.
=216	=216	=216	=216	=216	=216	=216	=216	=216
4A 4AA\	4r	.	4e\	li-	.	4a/	być	.
4r	4ccc 4aa 4ee/	.	8d\	-tość	.	4r	.	.
.	.	.	8c\	na-	.	.	.	.
4E 4EE/	4r	.	(8B\L	-de	.	4r	.	.
.	.	.	8d\J	.	.	.	.	.
4r	4gg#X 4ee 4b/	.	8c\L	mną	.	4ee\	bez	.
.	.	.	8B\J)	.	.	.	.	.
!!LO:LB:g=original
=217	=217	=217	=217	=217	=217	=217	=217	=217
*	*	*	*	*	*	*	*	*
4A 4AA\	4aa 4ee 4cc/	.	2A/	miej	.	(4ee\	twéj	.
4c 4A 4E\	(8ddd\L	.	.	.	.	8dd\)	.	.
.	8ccc\J	.	.	.	.	8cc\	mi-	.
4E 4EE/	8bb\L	.	(8G#X/L	gdyż	.	(8b\L	-ło-	.
.	8ddd\	.	8B/J	.	.	8dd\J	.	.
4d 4G#X 4E\	8ccc\	.	8A/L	bez	.	8cc\L	-ści	.
.	8bb\J)	.	8G#/J)	.	.	8b\J)	.	.
=218	=218	=218	=218	=218	=218	=218	=218	=218
4c 4A\	8aa\L	.	(8A/L	cie-	.	(8a\L	ah	.
.	8bb 8gg#X\	<	8G#X/J)	.	.	8b\	.	.
!	!	!	!	!	!	!	!	!LO:HP:b
4r	8ccc 8aa\	.	(8A/L	-bie	.	8cc\	.	<
.	8dddJ 8bb\	.	8B/J)	.	.	8dd\J)	.	.
2F 2FF/	8eeeL 8ccc\	.	(8c\L	ja	.	(8ee\L	.	.
.	8fff 8ddd\	.	8d\J)	.	.	8ff\J)	.	.
.	8gggn 8eee\	[	(8e\L	nie	.	(8gg\L	nie	[
.	8aaaJ 8fff\	.	8f\J)	.	.	8aa\J)	.	.
=219	=219	=219	=219	=219	=219	=219	=219	=219
*tremolo	*	*	*	*	*	*	*	*
!	!	!	!	!	!	!	!	!LO:DY:b:rj
16GG/LL	2aaa 2fff 2aa\	.	2f\	mo-	.	2aa\	mo-	ff
16G/	.	.	.	.	.	.	.	.
16GG/	.	.	.	.	.	.	.	.
16G/	.	.	.	.	.	.	.	.
16GG/	.	.	.	.	.	.	.	.
16G/	.	.	.	.	.	.	.	.
16GG/	.	.	.	.	.	.	.	.
16G/JJ	.	.	.	.	.	.	.	.
16GG/LL	4ggg 4eee 4gg\	.	4e\	-gę	.	4gg\	-gę	.
16G/	.	.	.	.	.	.	.	.
16GG/	.	.	.	.	.	.	.	.
16G/	.	.	.	.	.	.	.	.
16GG/	4eee 4ccc 4ee/	.	4c\	nie	.	4ee\	nie	.
16G/	.	.	.	.	.	.	.	.
16GG/	.	.	.	.	.	.	.	.
16G/JJ	.	.	.	.	.	.	.	.
=220	=220	=220	=220	=220	=220	=220	=220	=220
16GG/LL	2ggg 2eee 2gg\	.	(2e\	mo-	.	(2gg\	mo-	.
16G/	.	.	.	.	.	.	.	.
16GG/	.	.	.	.	.	.	.	.
16G/	.	.	.	.	.	.	.	.
16GG/	.	.	.	.	.	.	.	.
16G/	.	.	.	.	.	.	.	.
16GG/	.	.	.	.	.	.	.	.
16G/JJ	.	.	.	.	.	.	.	.
16GG/LL	4fff 4ddd 4ff\	.	4d\)	.	.	4ff\)	.	.
16G/	.	.	.	.	.	.	.	.
16GG/	.	.	.	.	.	.	.	.
16G/	.	.	.	.	.	.	.	.
16GG/	4ddd 4bb 4gg 4ff/	.	4B\	-gę	.	4dd\	-gę	.
16G/	.	.	.	.	.	.	.	.
16GG/	.	.	.	.	.	.	.	.
16G/JJ	.	.	.	.	.	.	.	.
*Xtremolo	*	*	*	*	*	*	*	*
=221	=221	=221	=221	=221	=221	=221	=221	=221
!!LO:TX:a:B:t=1a
*>B1	*>B1	*>B1	*>B1	*>B1	*>B1	*>B1	*>B1	*>B1
4c 4C\	4ccc 4gg 4ee/	.	4c\	zyć	.	4cc\	zyć	.
*	*X8va	*	*	*	*	*	*	*
4C 4CC/	4r	.	4r	.	.	4r	.	.
!	!	!	!	!	!LO:DY:a:rj	!	!	!
8r	8r	.	2e\	oh!	pp	2gg\	Bez	.
!	!	!LO:DY:b:rj	!	!	!	!	!	!
(16C/LL	(16c/LL	pp	.	.	.	.	.	.
16D/JJ	16d/JJ	.	.	.	.	.	.	.
8E'/L)	8e'/L)	.	.	.	.	.	.	.
(16D/L	(16d/L	.	.	.	.	.	.	.
!LO:TX:t=P:problem:wiszący łuk	!LO:TX:t=P:problem:wiszący łuk	!	!	!	!	!	!	!
16C/JJ)	16c/JJ)	.	.	.	.	.	.	.
!!LO:LB:g=original
=222:|!	=222:|!	=222:|!	=222:|!	=222:|!	=222:|!	=222:|!	=222:|!	=222:|!
!!LO:TX:a:B:t=2da
*>B2	*>B2	*>B2	*>B2	*>B2	*>B2	*>B2	*>B2	*>B2
*	*8va	*	*	*	*	*	*	*
!	!	!LO:DY:b:rj	!	!	!	!LO:TX:a:B:t=Più presto	!	!
4c 4C\	8cccL 8gg 8ee\	f	4c\	żyć	.	4cc\	żyć	.
*	*X8va	*	*	*	*	*	*	*
.	16r	.	.	.	.	.	.	.
!	!	!	!	!	!	!	!	!
.	16eeJk 16cc\	p	.	.	.	.	.	.
!	!	!	!	!	!	!	!	!LO:DY:b:rj
(4c 4C\	8eeL 8cc\	.	4c\	Mam-	<	4ee\	Żu-	p
.	16r	.	.	.	.	.	.	.
.	16eeJk 16cc\	.	.	.	.	.	.	.
4B 4BB\	8eeL 8cc\	<	4c\	-że	.	4ee\	-a-	.
.	16r	.	.	.	.	.	.	.
.	16eeJk 16cc\	.	.	.	.	.	.	.
4B-X 4BB-X\	8eeL 8cc\	.	4c\	przez	[	4ee\	-nie	.
.	16r	[	.	.	.	.	.	.
.	16eeJk 16cc\	.	.	.	.	.	.	.
=223	=223	=223	=223	=223	=223	=223	=223	=223
*>C	*>C	*>C	*>C	*>C	*>C	*>C	*>C	*>C
!	!	!	!	!	!	!	!	!LO:DY:a
4A 4AA\)	8eeL 8cc\	.	4c\	cie-	.	4ee\	to-	.
.	16r	.	.	.	.	.	.	.
!	!	!LO:HP:b:t=cres possibile	!	!	!	!	!	!LO:HP:a:t=cres possibile
.	16eeJk 16cc\	<	.	.	.	.	.	<
(4A 4AA\	8eeL 8cc\	.	8c\	-bie	.	8ee\	-bie	.
.	16r	.	8c\	wzgar-	.	8ee\	chcę	.
.	16eeJk 16cc\	.	.	.	.	.	.	.
4A-X 4AA-X\	8eeL 8cc\	.	4c\	-dzo-	.	4ee\	wier-	.
.	16r	.	.	.	.	.	.	.
.	16eeJk 16cc\	.	.	.	.	.	.	.
4G 4GG/)	8eeL 8cc\	.	4c\	-nym	.	4ee\	-ną	.
.	16r	.	.	.	.	.	.	.
.	16eeJk 16cc\	.	.	.	.	.	.	.
=224	=224	=224	=224	=224	=224	=224	=224	=224
*	*tremolo	*	*	*	*	*	*	*
!	!	!	!	!	!	!	!	!LO:DY:a:rj
1F#X 1FF#X	16aaLL 16ee-X\	ff	2.c\	być	.	1aa	być	ff
.	16cc\	.	.	.	.	.	.	.
.	16aa 16ee-\	.	.	.	.	.	.	.
.	16cc\	.	.	.	.	.	.	.
.	16aa 16ee-\	.	.	.	.	.	.	.
.	16cc\	.	.	.	.	.	.	.
.	16aa 16ee-\	.	.	.	.	.	.	.
.	16cc\JJ	.	.	.	.	.	.	.
.	16aaLL 16ee-\	.	.	.	.	.	.	.
.	16cc\	.	.	.	.	.	.	.
.	16aa 16ee-\	.	.	.	.	.	.	.
.	16cc\	.	.	.	.	.	.	.
.	16aa 16ee-\	.	4c\	wzgar-	.	.	.	.
.	16cc\	.	.	.	.	.	.	.
.	16aa 16ee-\	.	.	.	.	.	.	.
.	16cc\JJ	.	.	.	.	.	.	.
=225	=225	=225	=225	=225	=225	=225	=225	=225
2G 2GG/	16ggLL 16dd\	.	(2c\	-dzo-	.	(2dd\	wier-	.
.	16cc\	.	.	.	.	.	.	.
.	16gg 16dd\	.	.	.	.	.	.	.
.	16cc\	.	.	.	.	.	.	.
.	16gg 16dd\	.	.	.	.	.	.	.
.	16cc\	.	.	.	.	.	.	.
.	16gg 16dd\	.	.	.	.	.	.	.
.	16cc\JJ	.	.	.	.	.	.	.
4GG 4GGG/	16ggLL 16dd\	.	4.B\)	.	.	4.gg\)	.	.
.	16b\	.	.	.	.	.	.	.
.	16gg 16dd\	.	.	.	.	.	.	.
.	16b\	.	.	.	.	.	.	.
4GG 4GGG/	16gg 16dd\	.	.	.	.	.	.	.
.	16b\	.	.	.	.	.	.	.
.	16gg 16dd\	.	8B\	-nym	.	8gg\	-ną	.
.	16b\JJ	.	.	.	.	.	.	.
*	*Xtremolo	*	*	*	*	*	*	*
!!LO:LB:g=original
=226	=226	=226	=226	=226	=226	=226	=226	=226
!	!	!	!	!	!	!	!	!LO:DY:a:rj
(4C 4CC/	8eeL 8cc\	f	4c\	być	.	4ee^\	być	f
.	16r	.	.	.	.	.	.	.
.	16eeJk 16cc\	.	.	.	.	.	.	.
!	!	!	!	!	!	!	!	!LO:DY:a:rj
4c 4C\	8eeL 8cc\	p	4c\	oh!	.	4ee^\	bez	p
.	16r	<	.	.	.	.	.	.
.	16eeJk 16cc\	.	.	.	.	.	.	.
4Bn 4BBn\	8eeL 8cc\	.	4c\	ja	<	4ee^\	twéj	.
.	16r	.	.	.	.	.	.	.
.	16eeJk 16cc\	.	.	.	.	.	.	.
4B-X 4BB-X\	8eeL 8cc\	.	4c\	bez	[[	4ee^\	mi-	.
.	16r	[	.	.	.	.	.	.
.	16eeJk 16cc\	.	.	.	.	.	.	.
=227	=227	=227	=227	=227	=227	=227	=227	=227
4A 4AA\)	8eeL 8cc\	.	4c\	cie-	.	4ee\	-ło-	.
.	16r	.	.	.	.	.	.	.
!	!	!LO:HP:b:t=cres possibile	!	!	!	!	!	!LO:HP:a:t=cres possibile
.	16eeJk 16cc\	<	.	.	.	.	.	<
(4A 4AA\	8eeL 8cc\	.	8c\	-bie	.	8ee\	-ści	.
.	16r	.	8c\	nie	.	8ee\	nie	.
.	16eeJk 16cc\	.	.	.	.	.	.	.
4A-X 4AA-X\	8eeL 8cc\	.	4c\	mo-	.	4ee\	mo-	.
.	16r	.	.	.	.	.	.	.
.	16eeJk 16cc\	.	.	.	.	.	.	.
4G 4GG/)	8eeL 8cc\	.	4c\	-gę	.	4ee\	-gę	.
.	16r	.	.	.	.	.	.	.
.	16eeJk 16cc\	.	.	.	.	.	.	.
=228	=228	=228	=228	=228	=228	=228	=228	=228
*	*tremolo	*	*	*	*	*	*	*
!	!	!	!	!	!LO:DY:a:rj	!	!	!LO:DY:a:rj
1F#X 1FF#X	16aaLL 16ee-X\	f	1e-X	żyć	f	1aa	żyć	f
.	16cc\	.	.	.	.	.	.	.
.	16aa 16ee-\	.	.	.	.	.	.	.
.	16cc\	.	.	.	.	.	.	.
.	16aa 16ee-\	.	.	.	.	.	.	.
.	16cc\	.	.	.	.	.	.	.
.	16aa 16ee-\	.	.	.	.	.	.	.
.	16cc\JJ	.	.	.	.	.	.	.
.	16aaLL 16ee-\	.	.	.	.	.	.	.
.	16cc\	.	.	.	.	.	.	.
.	16aa 16ee-\	.	.	.	.	.	.	.
.	16cc\	.	.	.	.	.	.	.
.	16aa 16ee-\	.	.	.	.	.	.	.
.	16cc\	.	.	.	.	.	.	.
.	16aa 16ee-\	.	.	.	.	.	.	.
.	16cc\JJ	.	.	.	.	.	.	.
!!LO:LB:g=original
=229	=229	=229	=229	=229	=229	=229	=229	=229
1G 1GG	16ggLL 16een\	<	2e\	ja	.	(2gg\	ah	.
.	16cc\	.	.	.	.	.	.	.
.	16gg 16ee\	.	.	.	.	.	.	.
.	16cc\	.	.	.	.	.	.	.
.	16gg 16ee\	.	.	.	<	.	.	.
.	16cc\	.	.	.	.	.	.	.
.	16gg 16ee\	.	.	.	.	.	.	.
.	16cc\JJ	.	.	.	.	.	.	.
.	16aaLL 16ff#X\	.	2e-X\	bez	.	2aa\	.	.
.	16ee-X\	.	.	.	.	.	.	.
.	16aa 16ff#\	.	.	.	.	.	.	.
.	16ee-\	.	.	.	.	.	.	.
.	16aa 16ff#\	.	.	.	.	.	.	.
.	16ee-\	[	.	.	.	.	.	.
.	16aa 16ff#\	.	.	.	[	.	.	.
.	16ee-X\JJ	.	.	.	.	.	.	.
=230	=230	=230	=230	=230	=230	=230	=230	=230
1G 1GG	16bbLL 16ffn\	.	2d\	cie-	.	2bb\	.	.
.	16dd\	.	.	.	.	.	.	.
.	16bb 16ff\	.	.	.	.	.	.	.
.	16dd\	.	.	.	.	.	.	.
.	16bb 16ff\	.	.	.	.	.	.	.
.	16dd\	.	.	.	.	.	.	.
.	16bb 16ff\	.	.	.	.	.	.	.
.	16dd\JJ	.	.	.	.	.	.	.
.	16cccLL 16ee\	.	4c\	-bie	.	2ccc\)	.	.
.	16cc\	.	.	.	.	.	.	.
.	16ccc 16ee\	.	.	.	.	.	.	.
.	16cc\	.	.	.	.	.	.	.
.	16ccc 16ee\	.	4c\	nie	.	.	.	.
.	16cc\	.	.	.	.	.	.	.
.	16ccc 16ee\	.	.	.	.	.	.	.
.	16cc\JJ	.	.	.	.	.	.	.
=231	=231	=231	=231	=231	=231	=231	=231	=231
!	!	!	!	!	!	!LO:TX:a:i:t=con tutta la forza	!	!LO:DY:a:rj
4G 4GG/	16cccLL 16ff\	.	1g	mo-	.	2dd\	to-	f
.	16dd\	.	.	.	.	.	.	.
.	16ccc 16ff\	.	.	.	.	.	.	.
.	16dd\	.	.	.	.	.	.	.
4G 4GG/	16ccc 16ff\	.	.	.	.	.	.	.
.	16dd\	.	.	.	.	.	.	.
.	16ccc 16ff\	.	.	.	.	.	.	.
.	16dd\JJ	.	.	.	.	.	.	.
4G 4GG/	16cccLL 16ff\	.	.	.	.	4dd\	-bie	.
.	16dd\	.	.	.	.	.	.	.
.	16ccc 16ff\	.	.	.	.	.	.	.
.	16dd\	.	.	.	.	.	.	.
4G 4GG/	16ccc 16ff\	.	.	.	.	4dd\	chcę	.
.	16dd\	.	.	.	.	.	.	.
.	16ccc 16ff\	.	.	.	.	.	.	.
.	16dd\JJ	.	.	.	.	.	.	.
=232	=232	=232	=232	=232	=232	=232	=232	=232
*tremolo	*	*	*	*	*	*	*	*
8GGL 8GGG/	16bbLL 16ff\	.	2.g\	-gę	.	2.gg\	wier-	.
.	16dd\	.	.	.	.	.	.	.
8GG 8GGG/	16bb 16ff\	.	.	.	.	.	.	.
.	16dd\	.	.	.	.	.	.	.
8GG 8GGG/	16bb 16ff\	.	.	.	.	.	.	.
.	16dd\	.	.	.	.	.	.	.
8GGJ 8GGG/	16bb 16ff\	.	.	.	.	.	.	.
.	16dd\JJ	.	.	.	.	.	.	.
8GGL 8GGG/	16bbLL 16ff\	.	.	.	.	.	.	.
.	16dd\	.	.	.	.	.	.	.
8GG 8GGG/	16bb 16ff\	.	.	.	.	.	.	.
.	16dd\	.	.	.	.	.	.	.
8GG 8GGG/	16bb 16ff\	.	4f\	.	.	4b\	-ną	.
.	16dd\	.	.	.	.	.	.	.
8GGJ 8GGG/	16bb 16ff\	.	.	.	.	.	.	.
.	16dd\JJ	.	.	.	.	.	.	.
*Xtremolo	*Xtremolo	*	*	*	*	*	*	*
=233	=233	=233	=233	=233	=233	=233	=233	=233
8CL 8CC/	4ccc\	ff	2e\	żyć	.	2cc\	być	.
8GJ 8E 8C/	.	.	.	.	.	.	.	.
8GL 8E 8C\	8r	.	.	.	.	.	.	.
8GJ 8E 8C\	(16eee\LL	.	.	.	.	.	.	.
.	16ddd\JJ	.	.	.	.	.	.	.
8GL 8E 8C\	8ccc'\L)	.	2r	.	.	2r	.	.
8GJ 8E 8C\	(16ccc\L	.	.	.	.	.	.	.
.	16bb\JJ	.	.	.	.	.	.	.
8G#XL 8E 8C\	8ccc'\L)	.	.	.	.	.	.	.
8G#J 8E 8C\	(16ccc\L	.	.	.	.	.	.	.
.	16bb\JJ	.	.	.	.	.	.	.
!!LO:LB:g=original
=234	=234	=234	=234	=234	=234	=234	=234	=234
!	!LO:TX:t=P:problem:brak zakończenia łuku	!	!	!	!	!	!	!
8AL 8F 8C\	8aa'\L)	.	1r	.	.	1r	.	.
8A 8F 8C\	(16ff\L	.	.	.	.	.	.	.
.	16ee\JJ	.	.	.	.	.	.	.
8A 8F 8C\	8dd'\L)	.	.	.	.	.	.	.
8AJ 8F 8C\	(16dd\L	.	.	.	.	.	.	.
.	16cc\JJ	.	.	.	.	.	.	.
8A-XL 8F 8C\	8bn'>/L)	.	.	.	.	.	.	.
8A- 8F 8C\	(16b/L	.	.	.	.	.	.	.
.	16a-X/JJ	.	.	.	.	.	.	.
8A- 8F 8C\	8f'/L)	.	.	.	.	.	.	.
8A-J 8F 8C\	(16f/L	.	.	.	.	.	.	.
.	16d/JJ	.	.	.	.	.	.	.
=235	=235	=235	=235	=235	=235	=235	=235	=235
*tremolo	*	*	*	*	*	*	*	*
8GL 8E 8C\	4e'/)	.	1r	.	.	1r	.	.
8G 8E 8C\	.	.	.	.	.	.	.	.
8G 8E 8C\	8r	.	.	.	.	.	.	.
8G 8E 8C\	(16eee\LL	.	.	.	.	.	.	.
.	16ddd\JJ	.	.	.	.	.	.	.
8G 8E 8C\	8ccc'\L)	.	.	.	.	.	.	.
8GJ 8E 8C\	(16ccc\L	.	.	.	.	.	.	.
.	16bb\JJ	.	.	.	.	.	.	.
*Xtremolo	*	*	*	*	*	*	*	*
8G#XL 8E 8C\	8ccc'\L)	.	.	.	.	.	.	.
8G#J 8E 8C\	(16ccc\L	.	.	.	.	.	.	.
.	16bb\JJ	.	.	.	.	.	.	.
=236	=236	=236	=236	=236	=236	=236	=236	=236
8AL 8F 8C\	8aa'\L)	.	1r	.	.	1r	.	.
8A 8F 8C\	(16ff\L	.	.	.	.	.	.	.
.	16ee\JJ	.	.	.	.	.	.	.
8A 8F 8C\	8dd'\L)	.	.	.	.	.	.	.
8AJ 8F 8C\	(16dd\L	.	.	.	.	.	.	.
.	16cc\JJ	.	.	.	.	.	.	.
8GL 8F 8C\	8b'>/L)	.	.	.	.	.	.	.
8G 8F 8C\	(16b/L	.	.	.	.	.	.	.
.	16a/JJ	.	.	.	.	.	.	.
8G 8F 8C\	16g'/LL)	.	.	.	.	.	.	.
.	16f/	.	.	.	.	.	.	.
8GJ 8F 8C\	16e/	.	.	.	.	.	.	.
.	16d/JJ	.	.	.	.	.	.	.
=237	=237	=237	=237	=237	=237	=237	=237	=237
4G 4E 4C\	4c/	.	1r	.	.	1r	.	.
4r	4r	.	.	.	.	.	.	.
4c 4G 4E 4C\	4ccc 4gg 4ee 4cc\	sf	.	.	.	.	.	.
4r	4r	.	.	.	.	.	.	.
=238	=238	=238	=238	=238	=238	=238	=238	=238
(16qqGG/LL	(16qqG/LL	.	.	.	.	.	.	.
16qqAA/	16qqA/	.	.	.	.	.	.	.
16qqBB/JJ	16qqB/JJ	.	.	.	.	.	.	.
!LO:S:s=1:note:problem=note-level slur	!	!	!	!	!	!	!	!
2C) 2CC/	2c/)	.	1r;	.	.	1r;	.	.
2r;	2r;	.	.	.	.	.	.	.
==	==	==	==	==	==	==	==	==
*-	*-	*-	*-	*-	*-	*-	*-	*-
!!!system-decoration: s1,s2{(s3,s4)}
!!!RDF**kern: > = above
!!!RDF**kern: < = below
!!!RDF**kern: N = linked
!!!ENC: Andrzej Gręziak
!!!END: 2022-10-05
!!!ENC: Katarzyna Serwa
!!!END: 2022-10-29
!!!YEC: Copyright 2022 Narodowy Instytut Fryderyka Chopina (https://polishscores.org)
!!!YEM: License CC-BY-4.0 (https://creativecommons.org/licenses/by/4.0)
